; generated by PrusaSlicer 2.6.1+MacOS-x64 on 2023-11-25 at 19:51:20 UTC


;
;

;
;

;
;
; 

; external perimeters extrusion width = 0.45mm
; perimeters extrusion width = 0.45mm
; infill extrusion width = 0.45mm
; solid infill extrusion width = 0.45mm
; top infill extrusion width = 0.42mm
; first layer extrusion width = 0.50mm

M73 P0 R126
M201 X2500 Y2500 Z200 E2500 ; sets maximum accelerations, mm/sec^2
M203 X200 Y200 Z40 E100 ; sets maximum feedrates, mm / sec
M204 P2000 R1200 T2000 ; sets acceleration (P, T) and retract acceleration (R), mm/sec^2
M205 X8.00 Y8.00 Z2.00 E10.00 ; sets the jerk limits, mm/sec
M205 S0 T0 ; sets the minimum extruding and travel feed rate, mm/sec
;TYPE:Custom
M17 ; enable steppers
M862.3 P "MK4" ; printer model check
M862.1 P0.4 ; nozzle diameter check
M555 X55.15 Y31.15 W139.7 H143.7

G90 ; use absolute coordinates
M83 ; extruder relative mode

M140 S60 ; set bed temp

M104 S170 ; set extruder temp for bed leveling
M109 R170 ; wait for temp


M84 E ; turn off E motor

G28 ; home all without mesh bed level

G1 X42 Y-4 Z5 F4800

M302 S160 ; lower cold extrusion limit to 160C


G1 E-2 F2400 ; retraction


M84 E ; turn off E motor

G29 P9 X10 Y-4 W32 H4

M106 S100

G0 Z40 F10000

M190 S60 ; wait for bed temp

M107

;
; MBL
;
M84 E ; turn off E motor
G29 P1 ; invalidate mbl & probe print area
G29 P1 X0 Y0 W50 H20 C ; probe near purge place
G29 P3.2 ; interpolate mbl probes
G29 P3.13 ; extrapolate mbl outside probe area
G29 A ; activate mbl

; prepare for purge
M104 S215
G0 X0 Y-4 Z15 F4800 ; move away and ready for the purge
M109 S215

G92 E0
M569 S0 E ; set spreadcycle mode for extruder

;
; Extrude purge line
;
G92 E0 ; reset extruder position
G1 E2 F2400 ; deretraction after the initial one before nozzle cleaning
G0 E7 X15 Z0.2 F500 ; purge
G0 X25 E4 F500 ; purge
G0 X35 E4 F650 ; purge
G0 X45 E4 F800 ; purge
G0 X48 Z0.05 F8000 ; wipe, move close to the bed
G0 X51 Z0.2 F8000 ; wipe, move quickly away from the bed

G92 E0
M221 S100 ; set flow to 100%
G21 ; set units to millimeters
G90 ; use absolute coordinates
M83 ; use relative distances for extrusion
M900 K0.05 ; Filament gcode



M142 S36 ; set heatbreak target temp
M107
;LAYER_CHANGE
;Z:0.2
;HEIGHT:0.2
;BEFORE_LAYER_CHANGE
G92 E0.0
;0.2


G1 E-.8 F2100
G1 Z.2 F720
;AFTER_LAYER_CHANGE
;0.2
; printing object base_B.stl id:0 copy 0
G1 Z.4
G1 X73.917 Y151.299 F12000
G1 Z.2 F720
G1 E.8 F1500
M204 P600
;TYPE:Perimeter
;WIDTH:0.499999
G1 F1200
G1 X71.707 Y148.737 E.12859
G1 X69.625 Y146.069 E.12862
G1 X67.676 Y143.302 E.12863
G1 X65.866 Y140.444 E.12857
G1 X64.198 Y137.499 E.12863
G1 X62.677 Y134.477 E.12858
G1 X61.305 Y131.383 E.12863
G1 X60.087 Y128.226 E.12861
G1 X59.026 Y125.013 E.1286
G1 X58.123 Y121.752 E.1286
G1 X57.382 Y118.45 E.12862
G1 X56.804 Y115.116 E.1286
G1 X56.389 Y111.758 E.1286
G1 X56.14 Y108.383 E.12862
G1 X56.057 Y105 E.12861
G1 X56.14 Y101.617 E.12861
G1 X56.389 Y98.242 E.12862
G1 X56.804 Y94.884 E.1286
G1 X57.382 Y91.55 E.1286
G1 X58.123 Y88.248 E.12862
G1 X59.026 Y84.987 E.1286
G1 X60.087 Y81.774 E.1286
G1 X61.305 Y78.617 E.12861
G1 X62.677 Y75.523 E.12863
G1 X64.198 Y72.501 E.12858
G1 X65.866 Y69.556 E.12863
G1 X67.676 Y66.698 E.12857
G1 X69.625 Y63.931 E.12863
G1 X71.707 Y61.263 E.12862
G1 X73.917 Y58.701 E.12859
G1 X76.25 Y56.25 E.12861
G1 X78.701 Y53.917 E.12861
G1 X81.263 Y51.707 E.12859
G1 X83.931 Y49.625 E.12862
G1 X86.698 Y47.676 E.12863
G1 X89.556 Y45.866 E.12857
G1 X92.501 Y44.198 E.12863
G1 X95.523 Y42.677 E.12858
G1 X98.617 Y41.305 E.12863
G1 X101.774 Y40.087 E.12861
G1 X104.987 Y39.026 E.1286
G1 X108.248 Y38.123 E.1286
G1 X111.55 Y37.382 E.12862
G1 X114.884 Y36.804 E.1286
G1 X118.242 Y36.389 E.1286
G1 X121.617 Y36.14 E.12862
G1 X125 Y36.057 E.12861
G1 X128.383 Y36.14 E.12861
G1 X131.758 Y36.389 E.12862
G1 X135.116 Y36.804 E.1286
G1 X138.45 Y37.382 E.1286
G1 X141.752 Y38.123 E.12862
G1 X145.013 Y39.026 E.1286
G1 X148.226 Y40.087 E.1286
G1 X151.383 Y41.305 E.12861
G1 X154.477 Y42.677 E.12863
G1 X157.499 Y44.198 E.12858
G1 X160.444 Y45.866 E.12863
G1 X163.302 Y47.676 E.12857
G1 X166.069 Y49.625 E.12863
G1 X168.737 Y51.707 E.12862
G1 X171.299 Y53.917 E.12859
G1 X173.75 Y56.25 E.12861
G1 X176.083 Y58.701 E.12861
G1 X178.293 Y61.263 E.12859
G1 X180.375 Y63.931 E.12862
M73 P0 R125
G1 X182.324 Y66.698 E.12863
G1 X184.134 Y69.556 E.12857
G1 X185.802 Y72.501 E.12863
G1 X187.323 Y75.523 E.12858
G1 X188.695 Y78.617 E.12863
G1 X189.913 Y81.774 E.12861
G1 X190.974 Y84.987 E.1286
G1 X191.877 Y88.248 E.1286
G1 X192.618 Y91.55 E.12862
G1 X193.196 Y94.884 E.1286
G1 X193.611 Y98.242 E.1286
G1 X193.86 Y101.617 E.12862
G1 X193.943 Y105 E.12861
G1 X193.86 Y108.383 E.12861
G1 X193.611 Y111.758 E.12862
G1 X193.196 Y115.116 E.1286
G1 X192.618 Y118.45 E.1286
G1 X191.877 Y121.752 E.12862
G1 X190.974 Y125.013 E.1286
G1 X189.913 Y128.226 E.1286
G1 X188.695 Y131.383 E.12861
G1 X187.323 Y134.477 E.12863
G1 X185.802 Y137.499 E.12858
G1 X184.134 Y140.444 E.12863
G1 X182.324 Y143.302 E.12857
G1 X180.375 Y146.069 E.12863
G1 X178.293 Y148.737 E.12862
G1 X176.083 Y151.299 E.12859
G1 X173.75 Y153.75 E.12861
G1 X171.299 Y156.083 E.12861
G1 X168.737 Y158.293 E.12859
G1 X166.069 Y160.375 E.12862
G1 X163.302 Y162.324 E.12863
G1 X160.444 Y164.134 E.12857
G1 X157.499 Y165.802 E.12863
G1 X154.477 Y167.323 E.12858
G1 X151.383 Y168.695 E.12863
G1 X148.226 Y169.913 E.12861
G1 X145.013 Y170.974 E.1286
G1 X141.752 Y171.877 E.1286
G1 X138.45 Y172.618 E.12862
G1 X135.116 Y173.196 E.1286
G1 X131.758 Y173.611 E.1286
G1 X128.383 Y173.86 E.12862
G1 X125 Y173.943 E.12861
G1 X121.617 Y173.86 E.12861
G1 X118.242 Y173.611 E.12862
G1 X114.884 Y173.196 E.1286
G1 X111.55 Y172.618 E.1286
G1 X108.248 Y171.877 E.12862
G1 X104.987 Y170.974 E.1286
G1 X101.774 Y169.913 E.1286
G1 X98.617 Y168.695 E.12861
G1 X95.523 Y167.323 E.12863
G1 X92.501 Y165.802 E.12858
G1 X89.556 Y164.134 E.12863
G1 X86.698 Y162.324 E.12857
G1 X83.931 Y160.375 E.12863
G1 X81.263 Y158.293 E.12862
G1 X78.701 Y156.083 E.12859
G1 X76.25 Y153.75 E.12861
G1 X73.958 Y151.343 E.12632
M204 P1000
G1 X73.579 Y151.607 F12000
M204 P600
;TYPE:External perimeter
G1 F1200
G1 X71.353 Y149.027 E.12951
G1 X69.258 Y146.341 E.12946
G1 X67.296 Y143.556 E.12948
G1 X65.474 Y140.679 E.12943
G1 X63.795 Y137.715 E.12947
G1 X62.263 Y134.672 E.12948
G1 X60.883 Y131.558 E.12945
G1 X59.657 Y128.38 E.12946
G1 X58.588 Y125.146 E.12945
G1 X57.68 Y121.863 E.12946
G1 X56.934 Y118.539 E.12948
G1 X56.351 Y115.183 E.12946
G1 X55.934 Y111.802 E.12947
G1 X55.684 Y108.405 E.12946
G1 X55.6 Y105 E.12945
G1 X55.684 Y101.595 E.12945
G1 X55.934 Y98.198 E.12946
G1 X56.351 Y94.817 E.12947
G1 X56.934 Y91.461 E.12946
G1 X57.68 Y88.137 E.12948
G1 X58.588 Y84.854 E.12946
G1 X59.657 Y81.62 E.12945
G1 X60.883 Y78.442 E.12946
G1 X62.263 Y75.328 E.12945
G1 X63.795 Y72.285 E.12948
G1 X65.474 Y69.321 E.12947
G1 X67.296 Y66.443 E.12946
G1 X69.257 Y63.659 E.12942
G1 X71.353 Y60.973 E.12949
G1 X73.578 Y58.394 E.12946
G1 X75.927 Y55.927 E.12947
G1 X78.394 Y53.578 E.12947
G1 X80.973 Y51.353 E.12946
G1 X83.659 Y49.257 E.12949
G1 X86.443 Y47.296 E.12942
G1 X89.321 Y45.474 E.12946
G1 X92.285 Y43.795 E.12947
G1 X95.328 Y42.263 E.12948
G1 X98.442 Y40.883 E.12945
G1 X101.62 Y39.657 E.12946
G1 X104.854 Y38.588 E.12945
G1 X108.137 Y37.68 E.12946
G1 X111.461 Y36.934 E.12948
G1 X114.817 Y36.351 E.12946
G1 X118.198 Y35.934 E.12947
G1 X121.595 Y35.684 E.12946
G1 X125 Y35.6 E.12945
G1 X128.405 Y35.684 E.12945
G1 X131.802 Y35.934 E.12946
G1 X135.183 Y36.351 E.12947
G1 X138.539 Y36.934 E.12946
G1 X141.863 Y37.68 E.12948
G1 X145.146 Y38.588 E.12946
G1 X148.38 Y39.657 E.12945
G1 X151.558 Y40.883 E.12946
G1 X154.672 Y42.263 E.12945
G1 X157.715 Y43.795 E.12948
G1 X160.679 Y45.474 E.12947
G1 X163.556 Y47.296 E.12943
G1 X166.341 Y49.258 E.12948
G1 X169.027 Y51.353 E.12946
G1 X171.606 Y53.578 E.12946
G1 X174.073 Y55.927 E.12947
G1 X176.422 Y58.394 E.12947
G1 X178.647 Y60.973 E.12946
G1 X180.742 Y63.659 E.12946
G1 X182.704 Y66.443 E.12945
G1 X184.526 Y69.321 E.12946
G1 X186.205 Y72.285 E.12947
G1 X187.737 Y75.328 E.12948
G1 X189.117 Y78.442 E.12945
G1 X190.343 Y81.62 E.12946
G1 X191.412 Y84.854 E.12945
G1 X192.32 Y88.137 E.12946
G1 X193.066 Y91.461 E.12948
G1 X193.649 Y94.817 E.12946
G1 X194.066 Y98.198 E.12947
G1 X194.316 Y101.595 E.12946
G1 X194.4 Y105 E.12945
G1 X194.316 Y108.405 E.12945
G1 X194.066 Y111.802 E.12946
G1 X193.649 Y115.183 E.12947
G1 X193.066 Y118.539 E.12946
G1 X192.32 Y121.863 E.12948
G1 X191.412 Y125.146 E.12946
G1 X190.343 Y128.38 E.12945
G1 X189.117 Y131.558 E.12946
G1 X187.737 Y134.672 E.12945
G1 X186.205 Y137.715 E.12948
G1 X184.526 Y140.679 E.12947
G1 X182.704 Y143.557 E.12946
G1 X180.743 Y146.341 E.12942
G1 X178.647 Y149.027 E.12949
G1 X176.422 Y151.606 E.12946
G1 X174.073 Y154.073 E.12947
G1 X171.606 Y156.422 E.12947
G1 X169.027 Y158.647 E.12946
G1 X166.341 Y160.742 E.12946
G1 X163.557 Y162.704 E.12945
G1 X160.679 Y164.526 E.12946
G1 X157.715 Y166.205 E.12947
G1 X154.672 Y167.737 E.12948
G1 X151.558 Y169.117 E.12945
G1 X148.38 Y170.343 E.12946
G1 X145.146 Y171.412 E.12945
G1 X141.863 Y172.32 E.12946
G1 X138.539 Y173.066 E.12948
G1 X135.183 Y173.649 E.12946
G1 X131.802 Y174.066 E.12947
G1 X128.405 Y174.316 E.12946
G1 X125 Y174.4 E.12945
G1 X121.595 Y174.316 E.12945
G1 X118.198 Y174.066 E.12946
G1 X114.817 Y173.649 E.12947
G1 X111.461 Y173.066 E.12946
G1 X108.137 Y172.32 E.12948
G1 X104.854 Y171.412 E.12946
G1 X101.62 Y170.343 E.12945
G1 X98.442 Y169.117 E.12946
G1 X95.328 Y167.737 E.12945
G1 X92.285 Y166.205 E.12948
G1 X89.321 Y164.526 E.12947
G1 X86.444 Y162.704 E.12943
G1 X83.659 Y160.742 E.12948
G1 X80.973 Y158.647 E.12946
G1 X78.394 Y156.422 E.12946
G1 X75.927 Y154.073 E.12947
G1 X73.62 Y151.65 E.12715
M204 P1000
G1 X73.701 Y151.226 F12000
G1 E-.64 F2100
;WIPE_START
G1 F9600
G1 X73.117 Y151.067 E-.16
;WIPE_END
G1 Z.4 F720
G1 X177.028 Y60.111 F12000
G1 Z.2 F720
G1 E.8 F1500
M204 P600
;TYPE:Solid infill
;WIDTH:0.501318
G1 F1200
G1 X173.44 Y56.523 E.19341
G1 X171.023 Y54.222 E.1272
G1 X168.476 Y52.025 E.12821
G1 X167.645 Y51.376 E.04019
G1 X178.624 Y62.355 E.59181
G1 X180.045 Y64.176 E.08804
G1 X180.636 Y65.016 E.03915
G1 X164.984 Y49.364 E.84371
G1 X162.846 Y47.874 E.09933
G1 X182.126 Y67.154 E1.03927
G1 X183.245 Y68.921 E.07972
G1 X161.079 Y46.755 E1.19484
G1 X160.232 Y46.219 E.03821
G1 X159.453 Y45.777 E.03414
G1 X184.223 Y70.547 E1.3352
G1 X185.07 Y72.043 E.06553
G1 X157.957 Y44.93 E1.4615
G1 X157.305 Y44.561 E.02856
G1 X156.569 Y44.19 E.03142
G1 X185.81 Y73.431 E1.57621
G1 X186.467 Y74.736 E.05569
G1 X155.264 Y43.533 E1.68197
G1 X154.301 Y43.049 E.04108
G1 X153.996 Y42.913 E.01273
G1 X187.087 Y76.004 E1.78374
G1 X187.603 Y77.169 E.04857
G1 X152.831 Y42.397 E1.87435
G1 X151.667 Y41.881 E.04853
G1 X188.119 Y78.333 E1.96491
G1 X188.315 Y78.774 E.01839
G1 X188.567 Y79.43 E.02679
G1 X150.57 Y41.433 E2.04819
G1 X149.515 Y41.025 E.04311
G1 X188.975 Y80.485 E2.12706
G1 X189.382 Y81.541 E.04314
G1 X148.459 Y40.618 E2.20592
G1 X147.46 Y40.268 E.04035
G1 X189.732 Y82.54 E2.27863
M73 P1 R125
G1 X190.052 Y83.508 E.03886
G1 X146.492 Y39.948 E2.34806
G1 X145.524 Y39.628 E.03886
G1 X190.372 Y84.476 E2.41749
G1 X190.667 Y85.419 E.03766
M73 P1 R124
G1 X144.581 Y39.333 E2.48422
G1 X143.685 Y39.085 E.03544
G1 X190.915 Y86.315 E2.54589
G1 X191.163 Y87.211 E.03544
G1 X142.789 Y38.837 E2.60756
G1 X141.892 Y38.589 E.03547
G1 X191.411 Y88.108 E2.66928
G1 X191.615 Y88.96 E.03339
G1 X141.04 Y38.385 E2.7262
G1 X140.204 Y38.198 E.03265
G1 X191.802 Y89.796 E2.78134
G1 X191.99 Y90.632 E.03266
G1 X139.368 Y38.01 E2.83654
G1 X138.532 Y37.822 E.03266
G1 X192.178 Y91.468 E2.89174
G1 X192.324 Y92.262 E.03077
G1 X137.738 Y37.676 E2.94241
G1 X136.953 Y37.54 E.03037
G1 X192.46 Y93.047 E2.99205
G1 X192.596 Y93.831 E.03033
G1 X136.169 Y37.404 E3.04165
G1 X135.385 Y37.268 E.03033
G1 X192.732 Y94.615 E3.09124
G1 X192.842 Y95.374 E.02923
G1 X134.626 Y37.158 E3.13808
G1 X133.887 Y37.066 E.02839
G1 X192.934 Y96.113 E3.18287
G1 X193.025 Y96.853 E.02842
G1 X133.147 Y36.975 E3.22767
G1 X132.408 Y36.884 E.02838
G1 X193.116 Y97.592 E3.27241
G1 X193.205 Y98.329 E.0283
G1 X131.671 Y36.795 E3.31693
G1 X130.971 Y36.744 E.02675
M73 P1 R123
G1 X193.256 Y99.029 E3.35742
G1 X193.308 Y99.729 E.02675
G1 X130.271 Y36.692 E3.39795
G1 X129.571 Y36.641 E.02675
G1 X193.359 Y100.429 E3.43843
G1 X193.411 Y101.129 E.02675
M73 P2 R123
G1 X128.871 Y36.589 E3.47897
G1 X128.181 Y36.547 E.02635
G1 X193.453 Y101.819 E3.51843
G1 X193.469 Y102.484 E.02535
G1 X127.516 Y36.531 E3.55514
G1 X126.852 Y36.514 E.02532
G1 X193.486 Y103.148 E3.59185
G1 X193.502 Y103.813 E.02535
G1 X126.187 Y36.498 E3.62855
G1 X125.523 Y36.482 E.02532
G1 X193.518 Y104.477 E3.66521
G1 X193.528 Y105.135 E.02508
G1 X124.865 Y36.472 E3.70122
G1 X124.232 Y36.488 E.02414
G1 X193.512 Y105.768 E3.73448
G1 X193.497 Y106.401 E.02413
G1 X123.599 Y36.503 E3.76779
G1 X122.967 Y36.519 E.0241
G1 X193.481 Y107.033 E3.80099
G1 X193.466 Y107.666 E.02413
M73 P2 R122
G1 X122.334 Y36.534 E3.83431
G1 X121.701 Y36.55 E.02414
G1 X193.45 Y108.299 E3.86756
G1 X193.409 Y108.905 E.02315
G1 X121.095 Y36.591 E3.89802
G1 X120.491 Y36.636 E.02309
G1 X193.364 Y109.509 E3.92815
G1 X193.319 Y110.113 E.02309
G1 X119.887 Y36.68 E3.95831
G1 X119.283 Y36.725 E.02309
G1 X193.275 Y110.717 E3.98847
G1 X193.23 Y111.32 E.02305
M73 P3 R122
G1 X118.68 Y36.77 E4.01855
G1 X118.085 Y36.823 E.02277
G1 X193.177 Y111.915 E4.04777
G1 X193.106 Y112.492 E.02216
G1 X117.508 Y36.894 E4.07504
G1 X116.931 Y36.966 E.02216
G1 X193.034 Y113.069 E4.10226
G1 X192.963 Y113.646 E.02216
G1 X116.354 Y37.037 E4.12954
G1 X115.777 Y37.108 E.02216
G1 X192.892 Y114.223 E4.15681
G1 X192.821 Y114.8 E.02216
M73 P3 R121
G1 X115.2 Y37.179 E4.18409
G1 X114.636 Y37.264 E.02174
G1 X192.736 Y115.364 E4.20991
G1 X192.64 Y115.916 E.02136
G1 X114.084 Y37.36 E4.23449
G1 X113.531 Y37.456 E.02139
G1 X192.544 Y116.469 E4.25912
G1 X192.448 Y117.021 E.02136
G1 X112.979 Y37.552 E4.2837
G1 X112.427 Y37.647 E.02135
G1 X192.353 Y117.573 E4.30834
G1 X192.257 Y118.126 E.02139
G1 X111.874 Y37.743 E4.33297
G1 X111.335 Y37.852 E.02096
G1 X192.148 Y118.665 E4.35615
G1 X192.029 Y119.195 E.0207
M73 P4 R121
G1 X110.805 Y37.971 E4.37831
G1 X110.276 Y38.09 E.02067
G1 X191.91 Y119.724 E4.40041
G1 X191.791 Y120.254 E.0207
M73 P4 R120
G1 X109.746 Y38.209 E4.42256
G1 X109.217 Y38.328 E.02067
G1 X191.672 Y120.783 E4.44466
G1 X191.554 Y121.312 E.02066
G1 X108.688 Y38.446 E4.46682
G1 X108.166 Y38.573 E.02048
G1 X191.427 Y121.834 E4.48811
G1 X191.286 Y122.342 E.02009
G1 X107.658 Y38.714 E4.50789
G1 X107.15 Y38.854 E.02008
G1 X191.146 Y122.85 E4.52773
G1 X191.005 Y123.357 E.02006
G1 X106.643 Y38.995 E4.54746
G1 X106.135 Y39.135 E.02008
G1 X190.865 Y123.865 E4.56729
G1 X190.724 Y124.373 E.02009
G1 X105.627 Y39.276 E4.58708
G1 X105.119 Y39.416 E.02008
G1 X190.584 Y124.881 E4.60691
G1 X190.423 Y125.368 E.01955
G1 X104.632 Y39.577 E4.62449
G1 X104.144 Y39.738 E.01959
M73 P5 R119
G1 X190.262 Y125.856 E4.64211
G1 X190.101 Y126.343 E.01955
G1 X103.657 Y39.899 E4.65969
G1 X103.17 Y40.06 E.01955
G1 X189.94 Y126.83 E4.67726
G1 X189.779 Y127.318 E.01959
G1 X102.682 Y40.221 E4.69488
G1 X102.195 Y40.382 E.01955
G1 X189.618 Y127.805 E4.71246
G1 X189.449 Y128.284 E.01936
G1 X101.716 Y40.551 E4.72917
G1 X101.248 Y40.731 E.01911
G1 X189.269 Y128.752 E4.74469
G1 X189.088 Y129.22 E.01913
G1 X100.78 Y40.912 E4.76016
G1 X100.313 Y41.092 E.01908
G1 X188.908 Y129.687 E4.77563
G1 X188.727 Y130.155 E.01913
G1 X99.845 Y41.273 E4.7911
G1 X99.377 Y41.453 E.01911
M73 P5 R118
G1 X188.547 Y130.623 E4.80663
G1 X188.367 Y131.091 E.01911
G1 X98.909 Y41.633 E4.82215
G1 X98.455 Y41.827 E.01882
M73 P6 R118
G1 X188.173 Y131.545 E4.83617
G1 X187.974 Y131.995 E.01875
G1 X98.005 Y42.026 E4.8497
G1 X97.556 Y42.225 E.01872
G1 X187.775 Y132.444 E4.86317
G1 X187.576 Y132.893 E.01872
G1 X97.107 Y42.424 E4.87665
G1 X96.658 Y42.624 E.01874
G1 X187.376 Y133.342 E4.89007
G1 X187.177 Y133.791 E.01872
G1 X96.209 Y42.823 E4.90355
G1 X95.76 Y43.022 E.01872
G1 X186.978 Y134.24 E4.91702
G1 X186.764 Y134.674 E.01844
M73 P6 R117
G1 X95.326 Y43.236 E4.92888
G1 X94.895 Y43.453 E.01839
