; generated by PrusaSlicer 2.6.1+MacOS-x64 on 2023-11-25 at 19:50:01 UTC


;
;

;
;

;
;
; 

; external perimeters extrusion width = 0.45mm
; perimeters extrusion width = 0.45mm
; infill extrusion width = 0.45mm
; solid infill extrusion width = 0.45mm
; top infill extrusion width = 0.42mm
; first layer extrusion width = 0.50mm

M73 P0 R109
M201 X2500 Y2500 Z200 E2500 ; sets maximum accelerations, mm/sec^2
M203 X200 Y200 Z40 E100 ; sets maximum feedrates, mm / sec
M204 P2000 R1200 T2000 ; sets acceleration (P, T) and retract acceleration (R), mm/sec^2
M205 X8.00 Y8.00 Z2.00 E10.00 ; sets the jerk limits, mm/sec
M205 S0 T0 ; sets the minimum extruding and travel feed rate, mm/sec
;TYPE:Custom
M17 ; enable steppers
M862.3 P "MK4" ; printer model check
M862.1 P0.4 ; nozzle diameter check
M555 X73.8825 Y49.8825 W102.235 H106.235

G90 ; use absolute coordinates
M83 ; extruder relative mode

M140 S60 ; set bed temp

M104 S170 ; set extruder temp for bed leveling
M109 R170 ; wait for temp


M84 E ; turn off E motor

G28 ; home all without mesh bed level

G1 X42 Y-4 Z5 F4800

M302 S160 ; lower cold extrusion limit to 160C


G1 E-2 F2400 ; retraction


M84 E ; turn off E motor

G29 P9 X10 Y-4 W32 H4

M106 S100

G0 Z40 F10000

M190 S60 ; wait for bed temp

M107

;
; MBL
;
M84 E ; turn off E motor
G29 P1 ; invalidate mbl & probe print area
G29 P1 X0 Y0 W50 H20 C ; probe near purge place
G29 P3.2 ; interpolate mbl probes
G29 P3.13 ; extrapolate mbl outside probe area
G29 A ; activate mbl

; prepare for purge
M104 S215
G0 X0 Y-4 Z15 F4800 ; move away and ready for the purge
M109 S215

G92 E0
M569 S0 E ; set spreadcycle mode for extruder

;
; Extrude purge line
;
G92 E0 ; reset extruder position
G1 E2 F2400 ; deretraction after the initial one before nozzle cleaning
G0 E7 X15 Z0.2 F500 ; purge
G0 X25 E4 F500 ; purge
G0 X35 E4 F650 ; purge
G0 X45 E4 F800 ; purge
G0 X48 Z0.05 F8000 ; wipe, move close to the bed
G0 X51 Z0.2 F8000 ; wipe, move quickly away from the bed

G92 E0
M221 S100 ; set flow to 100%
G21 ; set units to millimeters
G90 ; use absolute coordinates
M83 ; use relative distances for extrusion
M900 K0.05 ; Filament gcode



M142 S36 ; set heatbreak target temp
M107
;LAYER_CHANGE
;Z:0.2
;HEIGHT:0.2
;BEFORE_LAYER_CHANGE
G92 E0.0
;0.2


G1 E-.8 F2100
G1 Z.2 F720
;AFTER_LAYER_CHANGE
;0.2
; printing object interior_B.stl id:0 copy 0
G1 Z.4
G1 X141.915 Y57.725 F12000
G1 Z.2 F720
G1 E.8 F1500
M204 P600
;TYPE:Perimeter
;WIDTH:0.499999
G1 F1200
G1 X144.215 Y58.612 E.09369
G1 X146.468 Y59.611 E.09367
G1 X148.669 Y60.719 E.09365
G1 X150.813 Y61.933 E.09364
G1 X152.895 Y63.252 E.09367
G1 X154.91 Y64.671 E.09367
G1 X156.853 Y66.187 E.09366
G1 X158.719 Y67.797 E.09367
G1 X160.504 Y69.496 E.09366
G1 X162.203 Y71.281 E.09366
G1 X163.813 Y73.147 E.09367
G1 X165.329 Y75.09 E.09366
G1 X166.748 Y77.105 E.09367
G1 X168.067 Y79.187 E.09367
G1 X169.281 Y81.331 E.09364
G1 X170.389 Y83.532 E.09365
G1 X171.388 Y85.785 E.09367
G1 X172.275 Y88.085 E.09369
G1 X173.048 Y90.425 E.09366
G1 X173.705 Y92.8 E.09365
G1 X174.245 Y95.204 E.09364
G1 X174.667 Y97.633 E.0937
G1 X174.968 Y100.079 E.09366
G1 X175.15 Y102.536 E.09364
G1 X175.21 Y105 E.09368
G1 X175.15 Y107.464 E.09368
G1 X174.968 Y109.921 E.09364
G1 X174.667 Y112.367 E.09366
G1 X174.245 Y114.796 E.0937
G1 X173.705 Y117.2 E.09364
G1 X173.048 Y119.575 E.09365
G1 X172.275 Y121.915 E.09366
G1 X171.388 Y124.215 E.09369
G1 X170.389 Y126.468 E.09367
G1 X169.281 Y128.669 E.09365
G1 X168.067 Y130.813 E.09364
G1 X166.748 Y132.895 E.09367
G1 X165.329 Y134.91 E.09367
G1 X163.813 Y136.853 E.09366
G1 X162.203 Y138.719 E.09367
G1 X160.504 Y140.504 E.09366
G1 X158.719 Y142.203 E.09366
M73 P0 R108
G1 X156.853 Y143.813 E.09367
G1 X154.91 Y145.329 E.09366
G1 X152.895 Y146.748 E.09367
G1 X150.813 Y148.067 E.09367
G1 X148.669 Y149.281 E.09364
G1 X146.468 Y150.389 E.09365
G1 X144.215 Y151.388 E.09367
G1 X141.915 Y152.275 E.09369
G1 X139.575 Y153.048 E.09366
G1 X137.2 Y153.705 E.09365
G1 X134.796 Y154.245 E.09364
G1 X132.367 Y154.667 E.0937
G1 X129.921 Y154.968 E.09366
G1 X127.464 Y155.15 E.09364
G1 X125 Y155.21 E.09368
G1 X122.536 Y155.15 E.09368
G1 X120.079 Y154.968 E.09364
G1 X117.633 Y154.667 E.09366
G1 X115.204 Y154.245 E.0937
G1 X112.8 Y153.705 E.09364
G1 X110.425 Y153.048 E.09365
G1 X108.085 Y152.275 E.09366
G1 X105.785 Y151.388 E.09369
G1 X103.532 Y150.389 E.09367
G1 X101.331 Y149.281 E.09365
G1 X99.187 Y148.067 E.09364
G1 X97.105 Y146.748 E.09367
G1 X95.09 Y145.329 E.09367
G1 X93.147 Y143.813 E.09366
G1 X91.281 Y142.203 E.09367
G1 X89.496 Y140.504 E.09366
G1 X87.797 Y138.719 E.09366
G1 X86.187 Y136.853 E.09367
G1 X84.671 Y134.91 E.09366
G1 X83.252 Y132.895 E.09367
G1 X81.933 Y130.813 E.09367
G1 X80.719 Y128.669 E.09364
G1 X79.611 Y126.468 E.09365
G1 X78.612 Y124.215 E.09367
G1 X77.725 Y121.915 E.09369
G1 X76.952 Y119.575 E.09366
G1 X76.295 Y117.2 E.09365
G1 X75.755 Y114.796 E.09364
G1 X75.333 Y112.367 E.0937
G1 X75.032 Y109.921 E.09366
G1 X74.85 Y107.464 E.09364
G1 X74.79 Y105 E.09368
G1 X74.85 Y102.536 E.09368
G1 X75.032 Y100.079 E.09364
G1 X75.333 Y97.633 E.09366
G1 X75.755 Y95.204 E.0937
G1 X76.295 Y92.8 E.09364
G1 X76.952 Y90.425 E.09365
G1 X77.725 Y88.085 E.09366
G1 X78.612 Y85.785 E.09369
G1 X79.611 Y83.532 E.09367
G1 X80.719 Y81.331 E.09365
G1 X81.933 Y79.187 E.09364
G1 X83.252 Y77.105 E.09367
G1 X84.671 Y75.09 E.09367
G1 X86.187 Y73.147 E.09366
G1 X87.797 Y71.281 E.09367
G1 X89.496 Y69.496 E.09366
G1 X91.281 Y67.797 E.09366
G1 X93.147 Y66.187 E.09367
G1 X95.09 Y64.671 E.09366
G1 X97.105 Y63.252 E.09367
G1 X99.187 Y61.933 E.09367
G1 X101.331 Y60.719 E.09364
G1 X103.532 Y59.611 E.09365
G1 X105.785 Y58.612 E.09367
G1 X108.085 Y57.725 E.09369
G1 X110.425 Y56.952 E.09366
G1 X112.8 Y56.295 E.09365
G1 X115.204 Y55.755 E.09364
G1 X117.633 Y55.333 E.0937
G1 X120.079 Y55.032 E.09366
G1 X122.536 Y54.85 E.09364
G1 X125.1 Y54.792 E.09747
G1 X127.464 Y54.85 E.08987
G1 X129.921 Y55.032 E.09364
G1 X132.367 Y55.333 E.09366
G1 X134.796 Y55.755 E.0937
G1 X137.2 Y56.295 E.09364
G1 X139.575 Y56.952 E.09365
G1 X141.858 Y57.706 E.09138
M204 P1000
G1 X142.069 Y57.294 F12000
M204 P600
;TYPE:External perimeter
G1 F1200
G1 X144.39 Y58.189 E.09454
G1 X146.663 Y59.197 E.0945
G1 X148.884 Y60.315 E.0945
G1 X151.048 Y61.541 E.09453
G1 X153.149 Y62.872 E.09453
G1 X155.182 Y64.304 E.09451
G1 X157.143 Y65.834 E.09453
G1 X159.026 Y67.458 E.09451
G1 X160.827 Y69.173 E.09452
G1 X162.542 Y70.974 E.09452
G1 X164.166 Y72.857 E.09451
G1 X165.696 Y74.818 E.09453
G1 X167.128 Y76.851 E.09451
G1 X168.459 Y78.952 E.09453
G1 X169.685 Y81.116 E.09453
G1 X170.803 Y83.337 E.0945
G1 X171.811 Y85.61 E.0945
G1 X172.706 Y87.931 E.09454
G1 X173.486 Y90.292 E.0945
G1 X174.149 Y92.689 E.09452
G1 X174.694 Y95.115 E.0945
G1 X175.119 Y97.566 E.09454
G1 X175.423 Y100.034 E.09451
G1 X175.606 Y102.514 E.09451
G1 X175.667 Y105 E.09451
G1 X175.606 Y107.486 E.09451
G1 X175.423 Y109.966 E.09451
G1 X175.119 Y112.434 E.09451
G1 X174.694 Y114.885 E.09454
G1 X174.149 Y117.311 E.0945
G1 X173.486 Y119.708 E.09452
G1 X172.706 Y122.069 E.0945
G1 X171.811 Y124.39 E.09454
G1 X170.803 Y126.663 E.0945
G1 X169.685 Y128.884 E.0945
G1 X168.459 Y131.048 E.09453
G1 X167.128 Y133.149 E.09453
G1 X165.696 Y135.183 E.09454
G1 X164.166 Y137.143 E.0945
G1 X162.542 Y139.026 E.09451
G1 X160.827 Y140.827 E.09452
G1 X159.026 Y142.542 E.09452
G1 X157.143 Y144.166 E.09451
G1 X155.183 Y145.696 E.0945
G1 X153.149 Y147.128 E.09454
G1 X151.048 Y148.459 E.09453
G1 X148.884 Y149.685 E.09453
G1 X146.663 Y150.803 E.0945
G1 X144.39 Y151.811 E.0945
G1 X142.069 Y152.706 E.09454
G1 X139.708 Y153.486 E.0945
G1 X137.311 Y154.149 E.09452
G1 X134.885 Y154.694 E.0945
G1 X132.434 Y155.119 E.09454
G1 X129.966 Y155.423 E.09451
G1 X127.486 Y155.606 E.09451
G1 X125 Y155.667 E.09451
G1 X122.514 Y155.606 E.09451
G1 X120.034 Y155.423 E.09451
G1 X117.566 Y155.119 E.09451
G1 X115.115 Y154.694 E.09454
G1 X112.689 Y154.149 E.0945
G1 X110.292 Y153.486 E.09452
G1 X107.931 Y152.706 E.0945
G1 X105.61 Y151.811 E.09454
G1 X103.337 Y150.803 E.0945
G1 X101.116 Y149.685 E.0945
G1 X98.952 Y148.459 E.09453
G1 X96.851 Y147.128 E.09453
G1 X94.817 Y145.696 E.09454
G1 X92.857 Y144.166 E.0945
G1 X90.974 Y142.542 E.09451
G1 X89.173 Y140.827 E.09452
G1 X87.458 Y139.026 E.09452
G1 X85.834 Y137.143 E.09451
G1 X84.304 Y135.182 E.09453
G1 X82.872 Y133.149 E.09451
G1 X81.541 Y131.048 E.09453
G1 X80.315 Y128.884 E.09453
G1 X79.197 Y126.663 E.0945
G1 X78.189 Y124.39 E.0945
G1 X77.294 Y122.069 E.09454
G1 X76.514 Y119.708 E.0945
G1 X75.851 Y117.311 E.09452
G1 X75.306 Y114.885 E.0945
G1 X74.881 Y112.434 E.09454
G1 X74.577 Y109.966 E.09451
G1 X74.394 Y107.486 E.09451
G1 X74.333 Y105 E.09451
G1 X74.394 Y102.514 E.09451
G1 X74.577 Y100.034 E.09451
G1 X74.881 Y97.566 E.09451
G1 X75.306 Y95.115 E.09454
G1 X75.851 Y92.689 E.0945
G1 X76.514 Y90.292 E.09452
G1 X77.294 Y87.931 E.0945
G1 X78.189 Y85.61 E.09454
G1 X79.197 Y83.337 E.0945
G1 X80.315 Y81.116 E.0945
G1 X81.541 Y78.952 E.09453
G1 X82.872 Y76.851 E.09453
G1 X84.304 Y74.818 E.09451
G1 X85.834 Y72.857 E.09453
G1 X87.458 Y70.974 E.09451
G1 X89.173 Y69.173 E.09452
G1 X90.974 Y67.458 E.09452
G1 X92.857 Y65.834 E.09451
G1 X94.818 Y64.304 E.09453
G1 X96.851 Y62.872 E.09451
G1 X98.952 Y61.541 E.09453
G1 X101.116 Y60.315 E.09453
G1 X103.337 Y59.197 E.0945
G1 X105.61 Y58.189 E.0945
G1 X107.931 Y57.294 E.09454
G1 X110.292 Y56.514 E.0945
G1 X112.689 Y55.851 E.09452
G1 X115.115 Y55.306 E.0945
G1 X117.566 Y54.881 E.09454
G1 X120.034 Y54.577 E.09451
G1 X122.514 Y54.394 E.09451
G1 X125.101 Y54.335 E.09835
G1 X127.486 Y54.394 E.09067
G1 X129.966 Y54.577 E.09451
G1 X132.434 Y54.881 E.09451
G1 X134.885 Y55.306 E.09454
G1 X137.311 Y55.851 E.0945
G1 X139.708 Y56.514 E.09452
G1 X142.012 Y57.275 E.09222
M204 P1000
G1 X142.14 Y57.688 F12000
G1 E-.64 F2100
;WIPE_START
G1 F9600
G1 X142.731 Y57.551 E-.16
;WIPE_END
G1 Z.4 F720
G1 X129.06 Y103.328 F12000
G1 Z.2 F720
G1 E.8 F1500
M204 P600
;TYPE:Perimeter
G1 F1200
G1 X129.3 Y104.076 E.02986
G1 X129.397 Y104.933 E.03278
G1 X129.326 Y105.792 E.03276
G1 X129.088 Y106.621 E.03278
G1 X128.694 Y107.387 E.03274
G1 X128.157 Y108.062 E.03278
G1 X127.499 Y108.619 E.03277
G1 X126.745 Y109.037 E.03277
G1 X125.924 Y109.3 E.03277
G1 X125.067 Y109.397 E.03278
G1 X124.208 Y109.326 E.03276
G1 X123.379 Y109.088 E.03278
G1 X122.613 Y108.694 E.03274
G1 X121.938 Y108.157 E.03278
G1 X121.381 Y107.499 E.03277
G1 X120.963 Y106.745 E.03277
G1 X120.7 Y105.924 E.03277
G1 X120.638 Y105.43 E.01892
G1 X120.603 Y104.933 E.01894
G1 X120.674 Y104.208 E.02769
G1 X120.912 Y103.379 E.03278
G1 X121.306 Y102.613 E.03274
G1 X121.843 Y101.938 E.03278
G1 X122.501 Y101.381 E.03277
G1 X123.255 Y100.963 E.03277
G1 X124.076 Y100.7 E.03277
G1 X124.933 Y100.603 E.03278
G1 X125.792 Y100.674 E.03276
G1 X126.621 Y100.912 E.03278
G1 X127.387 Y101.306 E.03274
G1 X128.062 Y101.843 E.03278
G1 X128.619 Y102.501 E.03277
G1 X129.042 Y103.271 E.03339
M204 P1000
G1 X128.634 Y103.471 F12000
M204 P600
;TYPE:External perimeter
G1 F1200
G1 X128.862 Y104.209 E.02936
G1 X128.942 Y104.978 E.02938
G1 X128.871 Y105.747 E.02935
G1 X128.651 Y106.488 E.02938
G1 X128.29 Y107.172 E.02939
G1 X127.804 Y107.772 E.02935
G1 X127.209 Y108.266 E.02939
G1 X126.529 Y108.634 E.02939
G1 X125.791 Y108.862 E.02936
G1 X125.022 Y108.942 E.02938
G1 X124.253 Y108.871 E.02935
G1 X123.512 Y108.651 E.02938
G1 X122.828 Y108.29 E.02939
G1 X122.228 Y107.804 E.02935
G1 X121.734 Y107.209 E.02939
G1 X121.366 Y106.529 E.02939
G1 X121.138 Y105.791 E.02936
G1 X121.058 Y104.978 E.03105
G1 X121.129 Y104.253 E.02769
G1 X121.349 Y103.512 E.02938
G1 X121.71 Y102.828 E.02939
G1 X122.196 Y102.228 E.02935
G1 X122.791 Y101.734 E.02939
G1 X123.471 Y101.366 E.02939
G1 X124.209 Y101.138 E.02936
G1 X124.978 Y101.058 E.02938
G1 X125.747 Y101.129 E.02935
G1 X126.488 Y101.349 E.02938
G1 X127.172 Y101.71 E.02939
G1 X127.772 Y102.196 E.02935
G1 X128.266 Y102.791 E.02939
G1 X128.605 Y103.418 E.02709
M204 P1000
G1 X129.031 Y103.521 F12000
G1 E-.64 F2100
;WIPE_START
G1 F9600
G1 X128.843 Y104.15 E-.16
;WIPE_END
G1 Z.4 F720
G1 X157.074 Y66.649 F12000
G1 Z.2 F720
G1 E.8 F1500
M204 P600
;TYPE:Solid infill
;WIDTH:0.501885
G1 F1200
G1 X160.239 Y69.814 E.17082
G1 X161.898 Y71.557 E.09183
G1 X163.495 Y73.408 E.0933
G1 X164.601 Y74.825 E.0686
G1 X155.174 Y65.399 E.50876
G1 X154.665 Y65.001 E.02466
G1 X152.848 Y63.722 E.0848
G1 X166.278 Y77.152 E.72483
G1 X167.434 Y78.957 E.0818
G1 X151.043 Y62.566 E.88463
G1 X150.602 Y62.286 E.01994
G1 X149.478 Y61.65 E.04929
G1 X168.35 Y80.522 E1.01854
G1 X168.918 Y81.525 E.04399
G1 X169.136 Y81.956 E.01843
G1 X148.044 Y60.864 E1.13835
G1 X146.737 Y60.207 E.05583
G1 X169.793 Y83.263 E1.24435
G1 X170.017 Y83.708 E.01901
G1 X170.358 Y84.477 E.0321
G1 X145.523 Y59.642 E1.34036
G1 X144.357 Y59.125 E.04868
G1 X170.875 Y85.643 E1.4312
G1 X171.311 Y86.728 E.04463
G1 X143.272 Y58.689 E1.51329
G1 X142.216 Y58.282 E.04319
G1 X171.718 Y87.784 E1.59225
G1 X171.888 Y88.223 E.01797
G1 X172.075 Y88.79 E.02278
G1 X141.21 Y57.925 E1.66581
G1 X140.241 Y57.605 E.03894
G1 X172.395 Y89.759 E1.73538
G1 X172.702 Y90.715 E.03832
G1 X139.285 Y57.298 E1.80354
G1 X138.388 Y57.05 E.03552
G1 X172.95 Y91.612 E1.86534
G1 X173.198 Y92.51 E.03555
G1 X137.49 Y56.802 E1.92719
G1 X136.627 Y56.588 E.03393
G1 X173.413 Y93.373 E1.98534
G1 X173.6 Y94.21 E.03273
M73 P1 R108
G1 X135.79 Y56.4 E2.04063
G1 X134.953 Y56.212 E.03274
G1 X173.788 Y95.047 E2.09595
G1 X173.939 Y95.847 E.03107
G1 X134.153 Y56.061 E2.14728
G1 X133.368 Y55.924 E.03041
G1 X174.076 Y96.633 E2.19707
G1 X174.212 Y97.418 E.0304
M73 P1 R107
G1 X132.582 Y55.788 E2.2468
G1 X131.826 Y55.681 E.02914
G1 X174.319 Y98.174 E2.29338
G1 X174.41 Y98.914 E.02845
G1 X131.086 Y55.59 E2.33823
G1 X130.345 Y55.498 E.0285
G1 X174.502 Y99.655 E2.38319
G1 X174.578 Y100.38 E.02782
G1 X129.62 Y55.422 E2.42642
G1 X128.919 Y55.37 E.02683
G1 X174.63 Y101.081 E2.46706
G1 X174.682 Y101.782 E.02683
G1 X128.218 Y55.318 E2.5077
G1 X127.517 Y55.267 E.02682
G1 X174.733 Y102.483 E2.54828
G1 X174.753 Y103.152 E.02554
G1 X126.848 Y55.247 E2.58547
G1 X126.183 Y55.23 E.02539
G1 X174.77 Y103.817 E2.62228
G1 X174.786 Y104.483 E.02542
G1 X125.517 Y55.214 E2.65909
G1 X124.863 Y55.209 E.02496
G1 X174.795 Y105.141 E2.69487
G1 X174.78 Y105.774 E.02416
G1 X124.229 Y55.224 E2.72825
G1 X123.594 Y55.238 E.02424
G1 X174.764 Y106.408 E2.76168
G1 X174.749 Y107.042 E.0242
G1 X122.959 Y55.252 E2.79515
G1 X122.336 Y55.278 E.0238
G1 X174.722 Y107.664 E2.82731
G1 X174.678 Y108.269 E.02315
G1 X121.731 Y55.322 E2.85759
G1 X121.127 Y55.367 E.02311
G1 X174.633 Y108.873 E2.88776
G1 X174.589 Y109.478 E.02315
M73 P2 R106
G1 X120.522 Y55.411 E2.91804
G1 X119.927 Y55.465 E.0228
G1 X174.535 Y110.073 E2.94724
G1 X174.464 Y110.651 E.02222
G1 X119.349 Y55.536 E2.9746
G1 X118.771 Y55.607 E.02222
G1 X174.393 Y111.229 E3.00196
G1 X174.321 Y111.807 E.02223
G1 X118.193 Y55.679 E3.02927
G1 X117.619 Y55.753 E.02209
G1 X174.247 Y112.381 E3.05626
G1 X174.151 Y112.934 E.02142
G1 X117.066 Y55.849 E3.08092
G1 X116.512 Y55.945 E.02146
G1 X174.055 Y113.488 E3.10564
G1 X173.959 Y114.041 E.02142
G1 X115.959 Y56.041 E3.1303
G1 X115.406 Y56.137 E.02142
G1 X173.863 Y114.594 E3.15497
G1 X173.749 Y115.129 E.02088
G1 X114.871 Y56.251 E3.17769
G1 X114.341 Y56.37 E.02073
G1 X173.63 Y115.659 E3.19987
G1 X173.511 Y116.189 E.02073
G1 X113.811 Y56.489 E3.22205
G1 X113.281 Y56.608 E.02073
G1 X173.392 Y116.719 E3.24424
G1 X173.267 Y117.243 E.02056
G1 X112.757 Y56.733 E3.26577
G1 X112.249 Y56.874 E.02012
M73 P2 R105
G1 X173.126 Y117.751 E3.28558
G1 X172.985 Y118.26 E.02016
M73 P3 R105
G1 X111.74 Y57.015 E3.30544
G1 X111.232 Y57.155 E.02011
G1 X172.845 Y118.768 E3.3253
G1 X172.704 Y119.277 E.02016
G1 X110.723 Y57.296 E3.34516
G1 X110.228 Y57.45 E.01978
G1 X172.55 Y119.772 E3.36357
G1 X172.389 Y120.26 E.01961
G1 X109.74 Y57.611 E3.38121
G1 X109.253 Y57.772 E.01957
G1 X172.228 Y120.747 E3.39881
G1 X172.066 Y121.235 E.01962
G1 X108.765 Y57.934 E3.4164
G1 X108.277 Y58.095 E.01961
G1 X171.905 Y121.723 E3.43405
G1 X171.727 Y122.194 E.01922
G1 X107.806 Y58.273 E3.44987
G1 X107.338 Y58.454 E.01915
G1 X171.546 Y122.662 E3.46535
