; generated by PrusaSlicer 2.6.1+MacOS-x64 on 2023-11-20 at 21:53:58 UTC


;
;

;
;

;
;
; 

; external perimeters extrusion width = 0.45mm
; perimeters extrusion width = 0.45mm
; infill extrusion width = 0.45mm
; solid infill extrusion width = 0.45mm
; top infill extrusion width = 0.42mm
; first layer extrusion width = 0.50mm

M73 P0 R109
M201 X2500 Y2500 Z200 E2500 ; sets maximum accelerations, mm/sec^2
M203 X200 Y200 Z40 E100 ; sets maximum feedrates, mm / sec
M204 P2000 R1200 T2000 ; sets acceleration (P, T) and retract acceleration (R), mm/sec^2
M205 X8.00 Y8.00 Z2.00 E10.00 ; sets the jerk limits, mm/sec
M205 S0 T0 ; sets the minimum extruding and travel feed rate, mm/sec
;TYPE:Custom
M17 ; enable steppers
M862.3 P "MK4" ; printer model check
M862.1 P0.4 ; nozzle diameter check
M555 X61.5 Y27.5 W127 H131

G90 ; use absolute coordinates
M83 ; extruder relative mode

M140 S60 ; set bed temp

M104 S170 ; set extruder temp for bed leveling
M109 R170 ; wait for temp


M84 E ; turn off E motor

G28 ; home all without mesh bed level

G1 X42 Y-4 Z5 F4800

M302 S160 ; lower cold extrusion limit to 160C


G1 E-2 F2400 ; retraction


M84 E ; turn off E motor

G29 P9 X10 Y-4 W32 H4

M106 S100

G0 Z40 F10000

M190 S60 ; wait for bed temp

M107

;
; MBL
;
M84 E ; turn off E motor
G29 P1 ; invalidate mbl & probe print area
G29 P1 X0 Y0 W50 H20 C ; probe near purge place
G29 P3.2 ; interpolate mbl probes
G29 P3.13 ; extrapolate mbl outside probe area
G29 A ; activate mbl

; prepare for purge
M104 S215
G0 X0 Y-4 Z15 F4800 ; move away and ready for the purge
M109 S215

G92 E0
M569 S0 E ; set spreadcycle mode for extruder

;
; Extrude purge line
;
G92 E0 ; reset extruder position
G1 E2 F2400 ; deretraction after the initial one before nozzle cleaning
G0 E7 X15 Z0.2 F500 ; purge
G0 X25 E4 F500 ; purge
G0 X35 E4 F650 ; purge
G0 X45 E4 F800 ; purge
G0 X48 Z0.05 F8000 ; wipe, move close to the bed
G0 X51 Z0.2 F8000 ; wipe, move quickly away from the bed

G92 E0
M221 S100 ; set flow to 100%
G21 ; set units to millimeters
G90 ; use absolute coordinates
M83 ; use relative distances for extrusion
M900 K0.05 ; Filament gcode



M142 S36 ; set heatbreak target temp
M107
;LAYER_CHANGE
;Z:0.2
;HEIGHT:0.2
;BEFORE_LAYER_CHANGE
G92 E0.0
;0.2


G1 E-.8 F2100
G1 Z.2 F720
;AFTER_LAYER_CHANGE
;0.2
; printing object base_A.stl id:0 copy 0
G1 Z.4
G1 X164.708 Y46.615 F12000
G1 Z.2 F720
G1 E.8 F1500
M204 P600
;TYPE:Perimeter
;WIDTH:0.499999
G1 F1200
G1 X167.035 Y48.622 E.11679
G1 X169.26 Y50.74 E.11675
G1 X171.378 Y52.965 E.11675
G1 X173.385 Y55.292 E.11679
G1 X175.275 Y57.714 E.11676
G1 X177.044 Y60.225 E.11674
G1 X178.687 Y62.821 E.11676
G1 X180.202 Y65.494 E.11677
G1 X181.583 Y68.238 E.11675
G1 X182.828 Y71.047 E.11678
G1 X183.934 Y73.913 E.11676
G1 X184.897 Y76.83 E.11675
G1 X185.717 Y79.791 E.11677
G1 X186.39 Y82.789 E.11678
G1 X186.915 Y85.816 E.11676
G1 X187.291 Y88.865 E.11676
G1 X187.517 Y91.929 E.11677
G1 X187.593 Y95 E.11675
G1 X187.517 Y98.071 E.11675
G1 X187.291 Y101.135 E.11677
G1 X186.915 Y104.184 E.11676
G1 X186.39 Y107.211 E.11676
G1 X185.717 Y110.209 E.11678
G1 X184.897 Y113.17 E.11677
G1 X183.934 Y116.087 E.11675
G1 X182.828 Y118.953 E.11676
G1 X181.583 Y121.762 E.11678
G1 X180.202 Y124.506 E.11675
G1 X178.688 Y127.179 E.11675
G1 X177.044 Y129.775 E.11678
G1 X175.275 Y132.286 E.11674
G1 X173.385 Y134.708 E.11676
G1 X171.378 Y137.035 E.11679
G1 X169.26 Y139.26 E.11675
G1 X167.035 Y141.378 E.11675
G1 X164.708 Y143.385 E.11679
G1 X162.286 Y145.275 E.11676
G1 X159.775 Y147.044 E.11674
G1 X157.179 Y148.688 E.11678
G1 X154.506 Y150.202 E.11675
G1 X151.762 Y151.583 E.11675
G1 X148.953 Y152.828 E.11678
G1 X146.087 Y153.934 E.11676
G1 X143.17 Y154.897 E.11675
G1 X140.209 Y155.717 E.11677
G1 X137.211 Y156.39 E.11678
G1 X134.184 Y156.915 E.11676
G1 X131.135 Y157.291 E.11676
G1 X128.071 Y157.517 E.11677
G1 X125 Y157.593 E.11675
G1 X121.929 Y157.517 E.11675
G1 X118.865 Y157.291 E.11677
G1 X115.816 Y156.915 E.11676
G1 X112.789 Y156.39 E.11676
G1 X109.791 Y155.717 E.11678
G1 X106.83 Y154.897 E.11677
G1 X103.913 Y153.934 E.11675
G1 X101.047 Y152.828 E.11676
G1 X98.238 Y151.583 E.11678
G1 X95.494 Y150.202 E.11675
G1 X92.821 Y148.688 E.11675
G1 X90.225 Y147.044 E.11678
G1 X87.714 Y145.275 E.11674
G1 X85.292 Y143.385 E.11676
G1 X82.965 Y141.378 E.11679
G1 X80.74 Y139.26 E.11675
G1 X78.622 Y137.035 E.11675
G1 X76.615 Y134.708 E.11679
G1 X74.725 Y132.286 E.11676
G1 X72.956 Y129.775 E.11674
G1 X71.312 Y127.179 E.11678
G1 X69.798 Y124.506 E.11675
G1 X68.417 Y121.762 E.11675
G1 X67.172 Y118.953 E.11678
G1 X66.066 Y116.087 E.11676
G1 X65.103 Y113.17 E.11675
G1 X64.283 Y110.209 E.11677
G1 X63.61 Y107.211 E.11678
G1 X63.085 Y104.184 E.11676
G1 X62.709 Y101.135 E.11676
G1 X62.483 Y98.071 E.11677
G1 X62.407 Y95 E.11675
G1 X62.483 Y91.929 E.11675
G1 X62.709 Y88.865 E.11677
G1 X63.085 Y85.816 E.11676
G1 X63.61 Y82.789 E.11676
G1 X64.283 Y79.791 E.11678
G1 X65.103 Y76.83 E.11677
G1 X66.066 Y73.913 E.11675
G1 X67.172 Y71.047 E.11676
G1 X68.417 Y68.238 E.11678
G1 X69.798 Y65.494 E.11675
G1 X71.312 Y62.821 E.11675
G1 X72.956 Y60.225 E.11678
G1 X74.725 Y57.714 E.11674
G1 X76.615 Y55.292 E.11676
G1 X78.622 Y52.965 E.11679
G1 X80.74 Y50.74 E.11675
G1 X82.965 Y48.622 E.11675
G1 X85.292 Y46.615 E.11679
G1 X87.714 Y44.725 E.11676
G1 X90.225 Y42.956 E.11674
G1 X92.821 Y41.312 E.11678
G1 X95.494 Y39.798 E.11675
G1 X98.238 Y38.417 E.11675
G1 X101.047 Y37.172 E.11678
G1 X103.913 Y36.066 E.11676
G1 X106.83 Y35.103 E.11675
G1 X109.791 Y34.283 E.11677
G1 X112.789 Y33.61 E.11678
G1 X115.816 Y33.085 E.11676
G1 X118.865 Y32.709 E.11676
G1 X121.929 Y32.483 E.11677
G1 X125 Y32.407 E.11675
G1 X128.071 Y32.483 E.11675
G1 X131.135 Y32.709 E.11677
G1 X134.184 Y33.085 E.11676
G1 X137.211 Y33.61 E.11676
G1 X140.209 Y34.283 E.11678
G1 X143.17 Y35.103 E.11677
G1 X146.087 Y36.066 E.11675
G1 X148.953 Y37.172 E.11676
G1 X151.762 Y38.417 E.11678
G1 X154.506 Y39.798 E.11675
G1 X157.179 Y41.312 E.11675
G1 X159.775 Y42.956 E.11678
G1 X162.286 Y44.725 E.11674
G1 X164.661 Y46.578 E.11449
M204 P1000
G1 X164.999 Y46.262 F12000
M204 P600
;TYPE:External perimeter
G1 F1200
G1 X167.342 Y48.283 E.1176
G1 X169.583 Y50.417 E.11761
G1 X171.717 Y52.658 E.11761
G1 X173.738 Y55.002 E.11763
G1 X175.642 Y57.441 E.1176
G1 X177.424 Y59.971 E.11761
G1 X179.08 Y62.586 E.11764
G1 X180.605 Y65.279 E.11762
G1 X181.996 Y68.043 E.1176
G1 X183.25 Y70.872 E.11761
G1 X184.364 Y73.759 E.11761
G1 X185.335 Y76.698 E.11764
G1 X186.16 Y79.68 E.11759
G1 X186.838 Y82.7 E.11764
G1 X187.367 Y85.749 E.11761
G1 X187.746 Y88.82 E.1176
G1 X187.974 Y91.906 E.11761
G1 X188.05 Y95 E.11763
G1 X187.974 Y98.094 E.11763
G1 X187.746 Y101.18 E.11761
G1 X187.367 Y104.251 E.1176
G1 X186.838 Y107.3 E.11761
G1 X186.16 Y110.32 E.11764
G1 X185.335 Y113.302 E.11759
G1 X184.364 Y116.241 E.11764
G1 X183.25 Y119.128 E.11761
G1 X181.996 Y121.957 E.11761
G1 X180.605 Y124.722 E.11764
G1 X179.08 Y127.414 E.11759
G1 X177.424 Y130.029 E.11764
G1 X175.642 Y132.559 E.11761
G1 X173.738 Y134.998 E.1176
G1 X171.717 Y137.342 E.11763
G1 X169.583 Y139.583 E.11761
G1 X167.342 Y141.717 E.11761
G1 X164.998 Y143.738 E.11763
G1 X162.559 Y145.642 E.1176
G1 X160.029 Y147.424 E.11761
G1 X157.414 Y149.08 E.11764
G1 X154.722 Y150.605 E.11759
G1 X151.957 Y151.996 E.11764
G1 X149.128 Y153.25 E.11761
G1 X146.241 Y154.364 E.11761
G1 X143.302 Y155.335 E.11764
G1 X140.32 Y156.16 E.11759
G1 X137.3 Y156.838 E.11764
G1 X134.251 Y157.367 E.11761
G1 X131.18 Y157.746 E.1176
G1 X128.094 Y157.974 E.11761
G1 X125 Y158.05 E.11763
G1 X121.906 Y157.974 E.11763
G1 X118.82 Y157.746 E.11761
G1 X115.749 Y157.367 E.1176
G1 X112.7 Y156.838 E.11761
G1 X109.68 Y156.16 E.11764
G1 X106.698 Y155.335 E.11759
G1 X103.759 Y154.364 E.11764
G1 X100.872 Y153.25 E.11761
G1 X98.043 Y151.996 E.11761
G1 X95.279 Y150.605 E.1176
G1 X92.586 Y149.08 E.11762
G1 X89.971 Y147.424 E.11764
G1 X87.441 Y145.642 E.11761
G1 X85.002 Y143.738 E.1176
G1 X82.658 Y141.717 E.11763
G1 X80.417 Y139.583 E.11761
G1 X78.283 Y137.342 E.11761
G1 X76.262 Y134.998 E.11763
G1 X74.358 Y132.559 E.1176
G1 X72.576 Y130.029 E.11761
G1 X70.92 Y127.414 E.11764
G1 X69.395 Y124.721 E.11762
G1 X68.004 Y121.957 E.1176
G1 X66.75 Y119.128 E.11761
G1 X65.636 Y116.241 E.11761
G1 X64.665 Y113.302 E.11764
G1 X63.84 Y110.32 E.11759
G1 X63.162 Y107.3 E.11764
G1 X62.633 Y104.251 E.11761
G1 X62.254 Y101.18 E.1176
G1 X62.026 Y98.094 E.11761
G1 X61.95 Y95 E.11763
G1 X62.026 Y91.906 E.11763
G1 X62.254 Y88.82 E.11761
G1 X62.633 Y85.749 E.1176
G1 X63.162 Y82.7 E.11761
G1 X63.84 Y79.68 E.11764
G1 X64.665 Y76.698 E.11759
G1 X65.636 Y73.759 E.11764
G1 X66.75 Y70.872 E.11761
G1 X68.004 Y68.043 E.11761
G1 X69.395 Y65.279 E.1176
G1 X70.92 Y62.586 E.11762
G1 X72.576 Y59.971 E.11764
G1 X74.358 Y57.441 E.11761
G1 X76.262 Y55.002 E.1176
G1 X78.283 Y52.658 E.11763
G1 X80.417 Y50.417 E.11761
G1 X82.658 Y48.283 E.11761
G1 X85.002 Y46.262 E.11763
G1 X87.441 Y44.358 E.1176
G1 X89.971 Y42.576 E.11761
G1 X92.586 Y40.92 E.11764
G1 X95.278 Y39.395 E.11759
G1 X98.043 Y38.004 E.11764
G1 X100.872 Y36.75 E.11761
G1 X103.759 Y35.636 E.11761
G1 X106.698 Y34.665 E.11764
G1 X109.68 Y33.84 E.11759
G1 X112.7 Y33.162 E.11764
G1 X115.749 Y32.633 E.11761
G1 X118.82 Y32.254 E.1176
G1 X121.906 Y32.026 E.11761
G1 X125 Y31.95 E.11763
G1 X128.094 Y32.026 E.11763
G1 X131.18 Y32.254 E.11761
G1 X134.251 Y32.633 E.1176
G1 X137.3 Y33.162 E.11761
G1 X140.32 Y33.84 E.11764
G1 X143.302 Y34.665 E.11759
G1 X146.241 Y35.636 E.11764
G1 X149.128 Y36.75 E.11761
G1 X151.957 Y38.004 E.11761
G1 X154.722 Y39.395 E.11764
G1 X157.414 Y40.92 E.11759
G1 X160.029 Y42.576 E.11764
G1 X162.559 Y44.358 E.11761
G1 X164.952 Y46.225 E.11535
M204 P1000
G1 X164.934 Y46.657 F12000
G1 E-.64 F2100
;WIPE_START
G1 F9600
G1 X165.535 Y46.727 E-.16
;WIPE_END
G1 Z.4 F720
G1 X165.552 Y47.614 F12000
M73 P0 R108
G1 Z.2 F720
G1 E.8 F1500
M204 P600
;TYPE:Solid infill
;WIDTH:0.500134
G1 F1200
G1 X168.97 Y51.033 E.1838
G1 X171.073 Y53.242 E.11595
G1 X173.067 Y55.553 E.11604
G1 X173.86 Y56.569 E.049
G1 X163.431 Y46.14 E.56071
G1 X162.041 Y45.056 E.06701
G1 X160.887 Y44.242 E.05369
G1 X175.758 Y59.113 E.79954
G1 X176.702 Y60.454 E.06235
G1 X177.134 Y61.136 E.03069
G1 X158.864 Y42.866 E.98228
G1 X157.101 Y41.75 E.07932
G1 X178.25 Y62.899 E1.13707
G1 X179.116 Y64.411 E.06624
G1 X155.589 Y40.884 E1.26493
G1 X154.125 Y40.067 E.06374
G1 X179.933 Y65.875 E1.38756
G1 X180.589 Y67.177 E.05543
G1 X152.823 Y39.411 E1.49284
G1 X151.528 Y38.763 E.05505
G1 X181.237 Y68.472 E1.5973
G1 X181.752 Y69.634 E.04832
G1 X150.366 Y38.248 E1.68746
G1 X149.205 Y37.733 E.04829
G1 X182.267 Y70.795 E1.77757
G1 X182.448 Y71.204 E.017
G1 X182.711 Y71.886 E.02779
G1 X148.114 Y37.289 E1.8601
G1 X147.061 Y36.883 E.0429
G1 X183.117 Y72.939 E1.93855
G1 X183.523 Y73.991 E.04287
G1 X146.009 Y36.477 E2.01694
G1 X145.038 Y36.153 E.03892
G1 X183.847 Y74.962 E2.08656
M73 P1 R108
G1 X184.166 Y75.928 E.03868
G1 X144.072 Y35.834 E2.15565
G1 X143.107 Y35.515 E.03864
G1 X184.485 Y76.893 E2.22468
G1 X184.737 Y77.791 E.03546
G1 X142.209 Y35.263 E2.28651
G1 X141.315 Y35.016 E.03526
G1 X184.984 Y78.685 E2.34786
G1 X185.231 Y79.579 E.03526
G1 X140.421 Y34.769 E2.4092
G1 X139.566 Y34.56 E.03346
G1 X185.44 Y80.434 E2.46641
G1 X185.627 Y81.268 E.03249
G1 X138.732 Y34.373 E2.5213
G1 X137.898 Y34.186 E.03249
G1 X185.814 Y82.102 E2.5762
G1 X185.997 Y82.932 E.03231
G1 X137.068 Y34.003 E2.63066
G1 X136.286 Y33.867 E.03018
G1 X186.133 Y83.714 E2.68002
G1 X186.269 Y84.496 E.03018
G1 X135.504 Y33.731 E2.72937
G1 X134.721 Y33.596 E.03021
G1 X186.404 Y85.279 E2.77873
G1 X186.53 Y86.05 E.0297
G1 X133.95 Y33.47 E2.82696
G1 X133.212 Y33.379 E.02827
G1 X186.621 Y86.788 E2.87153
G1 X186.712 Y87.526 E.02827
M73 P1 R107
G1 X132.474 Y33.288 E2.9161
G1 X131.737 Y33.197 E.02823
G1 X186.803 Y88.263 E2.96062
G1 X186.888 Y88.996 E.02805
G1 X131.004 Y33.112 E3.0046
G1 X130.306 Y33.06 E.02661
G1 X186.94 Y89.694 E3.04492
G1 X186.991 Y90.392 E.02661
G1 X129.608 Y33.009 E3.08519
G1 X128.91 Y32.957 E.02661
G1 X187.043 Y91.09 E3.12551
G1 X187.094 Y91.788 E.02661
M73 P2 R107
G1 X128.212 Y32.906 E3.16578
G1 X127.541 Y32.881 E.02553
G1 X187.119 Y92.459 E3.2032
G1 X187.135 Y93.122 E.02521
G1 X126.878 Y32.865 E3.23971
G1 X126.215 Y32.849 E.02521
G1 X187.151 Y93.785 E3.27622
G1 X187.168 Y94.448 E.02521
G1 X125.552 Y32.832 E3.31278
G1 X124.895 Y32.821 E.02498
G1 X187.179 Y95.105 E3.34869
G1 X187.163 Y95.736 E.024
G1 X124.264 Y32.837 E3.38176
G1 X123.633 Y32.852 E.024
G1 X187.148 Y96.367 E3.41488
G1 X187.132 Y96.998 E.024
G1 X123.002 Y32.868 E3.44794
G1 X122.37 Y32.883 E.02403
M73 P2 R106
G1 X187.117 Y97.63 E3.48111
G1 X187.091 Y98.251 E.02363
G1 X121.749 Y32.909 E3.5131
G1 X121.147 Y32.953 E.02295
G1 X187.047 Y98.853 E3.5431
G1 X187.003 Y99.455 E.02295
G1 X120.545 Y32.997 E3.57311
G1 X119.942 Y33.042 E.02299
G1 X186.958 Y100.058 E3.60311
G1 X186.914 Y100.66 E.02295
G1 X119.34 Y33.086 E3.63311
G1 X118.745 Y33.138 E.02271
M73 P3 R106
G1 X186.862 Y101.255 E3.6623
G1 X186.791 Y101.83 E.02203
G1 X118.17 Y33.209 E3.6894
G1 X117.594 Y33.28 E.02206
G1 X186.72 Y102.406 E3.71655
G1 X186.649 Y102.981 E.02203
G1 X117.019 Y33.351 E3.74365
G1 X116.443 Y33.422 E.02206
G1 X186.578 Y103.557 E3.7708
G1 X186.507 Y104.132 E.02203
G1 X115.868 Y33.493 E3.7979
G1 X115.317 Y33.589 E.02126
G1 X186.411 Y104.683 E3.82236
G1 X186.315 Y105.234 E.02126
M73 P3 R105
G1 X114.766 Y33.685 E3.84682
G1 X114.215 Y33.78 E.02126
G1 X186.22 Y105.785 E3.87134
G1 X186.124 Y106.336 E.02126
G1 X113.664 Y33.876 E3.8958
G1 X113.113 Y33.971 E.02126
G1 X186.029 Y106.887 E3.92032
G1 X185.92 Y107.425 E.02087
G1 X112.575 Y34.08 E3.94338
G1 X112.047 Y34.198 E.02057
G1 X185.802 Y107.953 E3.96543
G1 X185.683 Y108.481 E.02058
G1 X111.519 Y34.317 E3.98742
G1 X110.991 Y34.435 E.02057
M73 P4 R105
G1 X185.565 Y109.009 E4.00946
G1 X185.446 Y109.537 E.02058
G1 X110.463 Y34.554 E4.03145
G1 X109.934 Y34.673 E.02061
G1 X185.327 Y110.066 E4.05349
G1 X185.189 Y110.574 E.02001
G1 X109.426 Y34.811 E4.07339
G1 X108.92 Y34.951 E.01996
M73 P4 R104
G1 X185.049 Y111.08 E4.09307
G1 X184.909 Y111.587 E.02
G1 X108.413 Y35.091 E4.1128
G1 X107.907 Y35.231 E.01996
G1 X184.769 Y112.093 E4.13247
G1 X184.628 Y112.6 E.02001
G1 X107.4 Y35.372 E4.15215
G1 X106.896 Y35.514 E.01991
G1 X184.486 Y113.104 E4.17162
G1 X184.325 Y113.59 E.01946
G1 X106.41 Y35.675 E4.18909
G1 X105.924 Y35.835 E.01945
G1 X184.165 Y114.076 E4.20662
G1 X184.004 Y114.562 E.01946
G1 X105.438 Y35.996 E4.22409
G1 X104.952 Y36.156 E.01945
M73 P5 R104
G1 X183.844 Y115.048 E4.24162
G1 X183.683 Y115.534 E.01946
G1 X104.466 Y36.317 E4.25909
G1 X103.983 Y36.48 E.01938
G1 X183.52 Y116.017 E4.2763
G1 X183.34 Y116.484 E.01903
M73 P5 R103
G1 X103.516 Y36.66 E4.29173
G1 X103.05 Y36.84 E.01899
G1 X183.16 Y116.95 E4.3071
G1 X182.98 Y117.417 E.01903
G1 X102.583 Y37.02 E4.32253
G1 X102.117 Y37.2 E.01899
G1 X182.8 Y117.883 E4.33791
G1 X182.62 Y118.35 E.01903
G1 X101.65 Y37.38 E4.35334
G1 X101.184 Y37.561 E.01901
G1 X182.439 Y118.816 E4.36866
G1 X182.24 Y119.264 E.01864
G1 X100.736 Y37.76 E4.38205
G1 X100.288 Y37.958 E.01862
G1 X182.042 Y119.712 E4.39549
G1 X181.843 Y120.16 E.01864
G1 X99.84 Y38.157 E4.40888
G1 X99.392 Y38.355 E.01862
M73 P6 R103
G1 X181.645 Y120.608 E4.42232
G1 X181.446 Y121.056 E.01864
G1 X98.944 Y38.554 E4.43571
G1 X98.496 Y38.753 E.01864
M73 P6 R102
G1 X181.247 Y121.504 E4.4491
G1 X181.034 Y121.937 E.01835
G1 X98.063 Y38.966 E4.46092
G1 X97.633 Y39.182 E.01829
G1 X180.818 Y122.367 E4.47243
G1 X180.601 Y122.797 E.01831
G1 X97.203 Y39.399 E4.48388
G1 X96.772 Y39.615 E.01833
G1 X180.385 Y123.228 E4.49544
G1 X180.168 Y123.658 E.01831
G1 X96.342 Y39.832 E4.50689
G1 X95.912 Y40.048 E.01829
G1 X179.952 Y124.088 E4.5184
G1 X179.727 Y124.51 E.01818
G1 X95.49 Y40.273 E4.52899
G1 X95.078 Y40.507 E.01801
G1 X179.493 Y124.922 E4.53856
G1 X179.259 Y125.335 E.01805
M73 P7 R102
G1 X94.665 Y40.741 E4.54818
G1 X94.252 Y40.975 E.01805
M73 P7 R101
G1 X179.025 Y125.748 E4.55781
G1 X178.792 Y126.161 E.01803
G1 X93.839 Y41.208 E4.56749
G1 X93.427 Y41.442 E.01801
G1 X178.558 Y126.573 E4.57706
G1 X178.323 Y126.985 E.01803
G1 X93.015 Y41.677 E4.58657
