; generated by PrusaSlicer 2.6.1+MacOS-x64 on 2023-11-18 at 22:00:15 UTC


;
;

;
;

;
;
; 

; external perimeters extrusion width = 0.45mm
; perimeters extrusion width = 0.45mm
; infill extrusion width = 0.45mm
; solid infill extrusion width = 0.45mm
; top infill extrusion width = 0.40mm
; support material extrusion width = 0.37mm
; first layer extrusion width = 0.50mm

M73 P0 R65
M201 X2500 Y2500 Z200 E2500 ; sets maximum accelerations, mm/sec^2
M203 X200 Y200 Z40 E100 ; sets maximum feedrates, mm / sec
M204 P2000 R1200 T2000 ; sets acceleration (P, T) and retract acceleration (R), mm/sec^2
M205 X8.00 Y8.00 Z2.00 E10.00 ; sets the jerk limits, mm/sec
M205 S0 T0 ; sets the minimum extruding and travel feed rate, mm/sec
;TYPE:Custom
M17 ; enable steppers
M862.3 P "MK4" ; printer model check
M862.1 P0.4 ; nozzle diameter check
M555 X107.869 Y76.8645 W35.2988 H52.2709

G90 ; use absolute coordinates
M83 ; extruder relative mode

M140 S60 ; set bed temp

M104 S170 ; set extruder temp for bed leveling
M109 R170 ; wait for temp


M84 E ; turn off E motor

G28 ; home all without mesh bed level

G1 X42 Y-4 Z5 F4800

M302 S160 ; lower cold extrusion limit to 160C


G1 E-2 F2400 ; retraction


M84 E ; turn off E motor

G29 P9 X10 Y-4 W32 H4

M106 S100

G0 Z40 F10000

M190 S60 ; wait for bed temp

M107

;
; MBL
;
M84 E ; turn off E motor
G29 P1 ; invalidate mbl & probe print area
G29 P1 X0 Y0 W50 H20 C ; probe near purge place
G29 P3.2 ; interpolate mbl probes
G29 P3.13 ; extrapolate mbl outside probe area
G29 A ; activate mbl

; prepare for purge
M104 S215
G0 X0 Y-4 Z15 F4800 ; move away and ready for the purge
M109 S215

G92 E0
M569 S0 E ; set spreadcycle mode for extruder

;
; Extrude purge line
;
G92 E0 ; reset extruder position
G1 E2 F2400 ; deretraction after the initial one before nozzle cleaning
G0 E7 X15 Z0.2 F500 ; purge
G0 X25 E4 F500 ; purge
G0 X35 E4 F650 ; purge
G0 X45 E4 F800 ; purge
G0 X48 Z0.05 F8000 ; wipe, move close to the bed
G0 X51 Z0.2 F8000 ; wipe, move quickly away from the bed

G92 E0
M221 S100 ; set flow to 100%
G21 ; set units to millimeters
G90 ; use absolute coordinates
M83 ; use relative distances for extrusion
M900 K0.05 ; Filament gcode



M142 S36 ; set heatbreak target temp
M107
;LAYER_CHANGE
;Z:0.2
;HEIGHT:0.2
;BEFORE_LAYER_CHANGE
G92 E0.0
;0.2


G1 E-.8 F2100
G1 Z.2 F720
;AFTER_LAYER_CHANGE
;0.2
G1 Z.4
G1 X109.933 Y85.732 F12000
G1 Z.2 F720
G1 E.8 F1500
M204 P600
;TYPE:Skirt/Brim
;WIDTH:0.5
M73 P0 R64
G1 F1200
G1 X113.1 Y82.898 E.16152
G1 X113.807 Y82.436 E.0321
G1 X114.197 Y82.261 E.01625
G1 X115.276 Y81.963 E.04254
G1 X119.335 Y81.549 E.15507
G1 X120.028 Y81.56 E.02634
G1 X123.17 Y82.343 E.12307
G1 X124.168 Y82.84 E.04237
G1 X124.467 Y83.053 E.01395
G1 X125.126 Y83.684 E.03468
G1 X125.757 Y84.56 E.04103
G1 X126.014 Y84.017 E.02283
G1 X126.338 Y83.515 E.02271
G1 X126.793 Y82.997 E.0262
G1 X127.338 Y82.543 E.02696
G1 X127.947 Y82.177 E.027
G1 X128.653 Y81.903 E.02878
G1 X129.452 Y81.747 E.03094
G1 X132.792 Y81.608 E.12705
G1 X133.192 Y81.576 E.01525
G1 X133.936 Y81.633 E.02836
G1 X134.838 Y81.867 E.03542
G1 X137.402 Y83.059 E.10746
G1 X138.111 Y83.541 E.03258
G1 X138.698 Y84.113 E.03115
G1 X139.087 Y84.647 E.02511
G1 X141.432 Y89.166 E.1935
G1 X141.639 Y89.674 E.02085
G1 X142.345 Y93.257 E.1388
G1 X142.292 Y94.256 E.03802
G1 X142.05 Y95.132 E.03454
G1 X141.777 Y95.705 E.02412
G1 X141.383 Y96.294 E.02693
G1 X140.761 Y96.924 E.03365
G1 X138.794 Y98.511 E.09606
G1 X137.987 Y98.946 E.03484
G1 X138.852 Y104.466 E.21236
G1 X138.885 Y105.063 E.02272
G1 X137.986 Y111.056 E.23032
G1 X138.226 Y111.157 E.0099
G1 X138.742 Y111.459 E.02272
G1 X140.706 Y113.026 E.09549
G1 X141.313 Y113.622 E.03233
G1 X141.791 Y114.328 E.0324
G1 X142.058 Y114.889 E.02361
G1 X142.291 Y115.735 E.03335
G1 X142.353 Y116.381 E.02466
G1 X142.314 Y117.042 E.02517
G1 X141.75 Y119.925 E.11165
G1 X141.596 Y120.448 E.02072
G1 X139.032 Y125.445 E.21346
G1 X138.371 Y126.232 E.03906
G1 X137.543 Y126.857 E.03943
G1 X134.653 Y128.198 E.12109
G1 X133.372 Y128.423 E.04943
G1 X129.444 Y128.252 E.14943
G1 X128.607 Y128.084 E.03245
G1 X127.976 Y127.837 E.02575
G1 X127.396 Y127.498 E.02553
G1 X126.794 Y127.003 E.02962
G1 X126.318 Y126.457 E.02753
G1 X126.013 Y125.982 E.02145
G1 X125.733 Y125.39 E.02489
G1 X125.459 Y125.87 E.02101
G1 X125.06 Y126.39 E.02491
G1 X124.372 Y127.021 E.03548
G1 X123.325 Y127.599 E.04545
G1 X120.494 Y128.367 E.11148
G1 X119.591 Y128.457 E.03449
G1 X114.98 Y127.978 E.17619
G1 X114.046 Y127.68 E.03726
G1 X113.177 Y127.16 E.03849
G1 X109.95 Y124.283 E.16431
G1 X109.279 Y123.41 E.04185
G1 X108.845 Y122.404 E.04164
G1 X108.704 Y121.718 E.02662
G1 X108.68 Y120.725 E.03775
G1 X109.481 Y115.782 E.19032
G1 X109.794 Y114.859 E.03704
G1 X110.282 Y114.033 E.03646
G1 X110.941 Y113.314 E.03707
G1 X111.99 Y112.539 E.04957
G1 X111.166 Y109.672 E.11338
G1 X110.838 Y105.005 E.17781
G1 X111.166 Y100.328 E.17819
G1 X111.99 Y97.461 E.11338
G1 X110.907 Y96.655 E.05131
G1 X110.254 Y95.928 E.03714
G1 X109.775 Y95.098 E.03642
G1 X109.472 Y94.182 E.03667
G1 X108.681 Y89.283 E.1886
G1 X108.698 Y88.328 E.0363
G1 X108.784 Y87.815 E.01977
G1 X109.153 Y86.824 E.04019
G1 X109.223 Y86.687 E.00585
G1 X109.898 Y85.78 E.04297
M204 P1000
G1 X110.256 Y86.057 F12000
M204 P600
G1 F1200
G1 X113.392 Y83.251 E.15993
G1 X114.041 Y82.829 E.02942
G1 X114.337 Y82.696 E.01233
G1 X115.342 Y82.416 E.03965
G1 X119.368 Y82.005 E.15381
G1 X119.994 Y82.016 E.0238
G1 X122.988 Y82.763 E.11728
G1 X123.947 Y83.24 E.04071
G1 X124.185 Y83.413 E.01118
G1 X124.793 Y83.998 E.03207
G1 X125.159 Y84.511 E.02395
G1 X125.439 Y85.056 E.02329
G1 X126.227 Y84.642 E.03383
G1 X126.407 Y84.251 E.01636
G1 X126.713 Y83.777 E.02144
G1 X127.1 Y83.337 E.02227
G1 X127.616 Y82.906 E.02555
G1 X128.164 Y82.58 E.02423
G1 X128.762 Y82.347 E.02439
G1 X129.489 Y82.203 E.02817
G1 X132.82 Y82.065 E.12671
G1 X133.211 Y82.033 E.01491
G1 X133.843 Y82.08 E.02409
G1 X134.665 Y82.291 E.03225
G1 X137.162 Y83.449 E.10461
G1 X137.808 Y83.883 E.02958
G1 X138.365 Y84.426 E.02956
G1 X138.689 Y84.873 E.02098
G1 X141.021 Y89.367 E.19243
G1 X141.207 Y89.825 E.01879
G1 X141.89 Y93.316 E.1352
G1 X141.837 Y94.203 E.03377
G1 X141.628 Y94.955 E.02966
G1 X141.387 Y95.465 E.02144
G1 X141.016 Y96.021 E.0254
G1 X140.447 Y96.593 E.03066
G1 X138.524 Y98.141 E.09382
G1 X137.742 Y98.558 E.03368
G1 X137.479 Y98.652 E.01061
G1 X138.399 Y104.525 E.22593
G1 X138.427 Y105.063 E.02048
G1 X137.479 Y111.354 E.2418
G1 X138.015 Y111.563 E.02187
G1 X138.471 Y111.827 E.02003
G1 X140.412 Y113.377 E.09441
G1 X140.948 Y113.898 E.02841
G1 X141.403 Y114.57 E.03084
G1 X141.623 Y115.031 E.01941
G1 X141.838 Y115.799 E.03031
G1 X141.896 Y116.407 E.02321
G1 X141.863 Y116.969 E.0214
G1 X141.303 Y119.826 E.11065
G1 X141.164 Y120.298 E.0187
G1 X138.665 Y125.171 E.20814
G1 X138.038 Y125.917 E.03704
G1 X137.289 Y126.476 E.03552
G1 X134.542 Y127.753 E.11513
G1 X133.366 Y127.966 E.04542
G1 X129.482 Y127.796 E.14776
G1 X128.719 Y127.64 E.0296
G1 X128.162 Y127.419 E.02277
G1 X127.644 Y127.114 E.02285
G1 X127.1 Y126.663 E.02686
G1 X126.694 Y126.197 E.02349
G1 X126.407 Y125.75 E.02019
G1 X126.227 Y125.358 E.01639
G1 X125.443 Y124.946 E.03366
G1 X125.084 Y125.608 E.02862
G1 X124.71 Y126.095 E.02334
G1 X124.085 Y126.664 E.03212
G1 X123.131 Y127.184 E.04129
G1 X120.393 Y127.921 E.10777
G1 X119.614 Y128 E.02976
G1 X115.096 Y127.536 E.17262
G1 X114.211 Y127.253 E.03531
G1 X113.433 Y126.781 E.03459
G1 X110.27 Y123.956 E.16118
G1 X109.686 Y123.201 E.03628
G1 X109.287 Y122.286 E.03794
G1 X109.16 Y121.684 E.02338
G1 X109.134 Y120.776 E.03452
G1 X109.92 Y115.908 E.18741
G1 X110.201 Y115.068 E.03366
G1 X110.637 Y114.322 E.03284
G1 X111.231 Y113.668 E.03358
G1 X112.518 Y112.717 E.06082
G1 X111.62 Y109.615 E.12274
G1 X111.295 Y104.989 E.17625
G1 X111.62 Y100.385 E.17542
G1 X112.518 Y97.283 E.12274
G1 X111.198 Y96.302 E.06251
G1 X110.611 Y95.642 E.03357
G1 X110.202 Y94.933 E.03111
G1 X109.911 Y94.056 E.03512
G1 X109.136 Y89.232 E.18569
G1 X109.155 Y88.354 E.03338
G1 X109.221 Y87.953 E.01545
G1 X109.576 Y86.997 E.03876
G1 X109.619 Y86.914 E.00355
G1 X110.22 Y86.105 E.0383
M204 P1000
G1 X110.578 Y86.382 F12000
M204 P600
G1 F1200
G1 X113.683 Y83.604 E.15835
G1 X114.274 Y83.223 E.02672
G1 X114.477 Y83.131 E.00847
G1 X115.409 Y82.869 E.03679
G1 X119.4 Y82.461 E.15247
G1 X119.958 Y82.473 E.02121
G1 X122.852 Y83.2 E.11341
G1 X123.724 Y83.639 E.0371
G1 X123.879 Y83.752 E.00729
G1 X124.46 Y84.312 E.03067
G1 X124.775 Y84.76 E.02081
G1 X124.977 Y85.159 E.017
G1 X125.17 Y85.713 E.0223
G1 X126.579 Y84.973 E.06049
G1 X126.801 Y84.482 E.02048
G1 X127.07 Y84.064 E.01889
G1 X127.407 Y83.676 E.01953
G1 X127.895 Y83.269 E.02415
G1 X128.35 Y82.998 E.02013
G1 X128.873 Y82.791 E.02138
G1 X129.526 Y82.659 E.02532
G1 X132.851 Y82.521 E.12648
G1 X133.199 Y82.49 E.01328
G1 X133.752 Y82.529 E.02107
G1 X134.493 Y82.715 E.02904
G1 X136.924 Y83.84 E.10181
G1 X137.504 Y84.225 E.02646
G1 X138.032 Y84.74 E.02803
G1 X138.291 Y85.098 E.01679
G1 X140.61 Y89.567 E.19136
G1 X140.774 Y89.975 E.01671
G1 X141.436 Y93.373 E.13157
G1 X141.383 Y94.147 E.02949
G1 X141.206 Y94.779 E.02494
G1 X140.997 Y95.226 E.01875
G1 X140.649 Y95.748 E.02384
G1 X140.134 Y96.26 E.0276
G1 X138.255 Y97.771 E.09164
G1 X137.551 Y98.142 E.03024
G1 X137.216 Y98.25 E.01338
G1 X136.892 Y98.31 E.01252
G1 X137.053 Y98.889 E.02284
G1 X137.946 Y104.583 E.21905
G1 X137.97 Y105.063 E.01827
G1 X137.054 Y111.107 E.23233
G1 X136.895 Y111.68 E.0226
G1 X137.242 Y111.754 E.01348
G1 X137.804 Y111.969 E.02287
G1 X138.2 Y112.196 E.01735
G1 X140.119 Y113.728 E.09333
G1 X140.583 Y114.175 E.02449
G1 X141.015 Y114.813 E.02928
G1 X141.189 Y115.176 E.0153
G1 X141.386 Y115.866 E.02727
G1 X141.439 Y116.4 E.0204
G1 X141.411 Y116.897 E.01892
G1 X140.857 Y119.727 E.1096
G1 X140.732 Y120.147 E.01665
G1 X138.297 Y124.899 E.20294
G1 X137.742 Y125.567 E.03301
G1 X137.034 Y126.096 E.03359
G1 X134.43 Y127.309 E.10918
G1 X133.36 Y127.508 E.04136
G1 X129.52 Y127.34 E.14608
G1 X128.869 Y127.208 E.02525
G1 X128.348 Y127.001 E.02131
G1 X127.894 Y126.731 E.02008
G1 X127.407 Y126.324 E.02412
G1 X127.07 Y125.936 E.01953
G1 X126.801 Y125.518 E.01889
G1 X126.579 Y125.027 E.02048
G1 X125.169 Y124.286 E.06054
G1 X124.97 Y124.86 E.02309
G1 X124.71 Y125.345 E.02091
G1 X124.359 Y125.801 E.02187
G1 X123.84 Y126.278 E.02679
G1 X122.985 Y126.75 E.03712
G1 X120.292 Y127.475 E.106
G1 X119.637 Y127.543 E.02503
G1 X115.213 Y127.093 E.16901
G1 X114.378 Y126.826 E.03332
G1 X113.691 Y126.403 E.03066
G1 X110.591 Y123.63 E.15808
G1 X110.066 Y122.946 E.03277
G1 X109.729 Y122.167 E.03226
G1 X109.616 Y121.647 E.02022
G1 X109.589 Y120.826 E.03122
G1 X110.36 Y116.036 E.18439
G1 X110.627 Y115.236 E.03205
G1 X110.993 Y114.61 E.02756
G1 X111.522 Y114.021 E.03009
G1 X113.046 Y112.895 E.07202
G1 X112.074 Y109.558 E.1321
G1 X111.752 Y105.005 E.17348
G1 X112.075 Y100.441 E.17389
G1 X113.046 Y97.105 E.13205
G1 X111.522 Y95.979 E.07202
G1 X110.993 Y95.39 E.03009
G1 X110.627 Y94.764 E.02756
G1 X110.36 Y93.964 E.03205
G1 X109.59 Y89.181 E.18412
G1 X109.611 Y88.381 E.03042
G1 X109.657 Y88.09 E.0112
G1 X109.998 Y87.174 E.03715
G1 X110.542 Y86.43 E.03503
M204 P1000
G1 X110.901 Y86.706 F12000
M204 P600
G1 F1200
G1 X113.974 Y83.957 E.15671
G1 X114.505 Y83.617 E.02396
G1 X114.619 Y83.566 E.00475
G1 X115.476 Y83.321 E.03388
G1 X119.432 Y82.917 E.15114
G1 X119.921 Y82.929 E.01859
G1 X122.714 Y83.637 E.10951
G1 X123.498 Y84.037 E.03345
G1 X123.574 Y84.093 E.00359
G1 X124.1 Y84.595 E.02763
G1 X124.375 Y84.982 E.01804
G1 X124.562 Y85.351 E.01572
G1 X124.699 Y85.753 E.01614
G1 X124.833 Y86.489 E.02843
G1 X125.31 Y86.224 E.02074
G1 X125.617 Y85.995 E.01456
G1 X126.967 Y85.285 E.05797
G1 X127.018 Y85.111 E.00689
G1 X127.197 Y84.712 E.01662
G1 X127.428 Y84.348 E.01638
G1 X127.715 Y84.014 E.01674
G1 X128.173 Y83.632 E.02267
G1 X128.565 Y83.402 E.01727
G1 X129.02 Y83.224 E.01857
G1 X129.563 Y83.115 E.02105
G1 X132.881 Y82.977 E.12621
G1 X133.221 Y82.947 E.01297
G1 X133.663 Y82.977 E.01684
G1 X134.322 Y83.14 E.0258
G1 X136.686 Y84.23 E.09894
G1 X137.232 Y84.594 E.02494
G1 X137.697 Y85.051 E.02478
G1 X137.893 Y85.323 E.01274
G1 X140.199 Y89.767 E.19029
G1 X140.342 Y90.124 E.01462
G1 X140.981 Y93.428 E.1279
G1 X140.93 Y94.088 E.02516
G1 X140.783 Y94.604 E.02039
G1 X140.607 Y94.988 E.01605
G1 X140.282 Y95.474 E.02222
G1 X139.839 Y95.91 E.02362
G1 X137.987 Y97.4 E.09034
G1 X137.359 Y97.727 E.02691
G1 X137.099 Y97.807 E.01034
G1 X136.176 Y97.958 E.03555
G1 X136.477 Y98.524 E.02436
G1 X136.604 Y98.974 E.01777
G1 X137.492 Y104.642 E.21805
G1 X137.512 Y105.062 E.01598
G1 X136.604 Y111.023 E.22917
G1 X136.477 Y111.475 E.01784
G1 X136.187 Y112.023 E.02356
G1 X137.102 Y112.19 E.03535
G1 X137.625 Y112.39 E.02128
G1 X137.928 Y112.564 E.01328
G1 X139.827 Y114.079 E.09233
G1 X140.219 Y114.452 E.02057
G1 X140.628 Y115.055 E.02769
G1 X140.756 Y115.322 E.01125
G1 X140.933 Y115.932 E.02414
G1 X140.982 Y116.427 E.01891
G1 X140.959 Y116.824 E.01511
G1 X140.41 Y119.628 E.10859
G1 X140.3 Y119.995 E.01456
G1 X137.929 Y124.626 E.19773
G1 X137.409 Y125.253 E.03096
G1 X136.782 Y125.714 E.02958
G1 X134.315 Y126.866 E.10348
G1 X133.352 Y127.05 E.03726
G1 X129.557 Y126.884 E.14437
G1 X129.017 Y126.775 E.02094
G1 X128.563 Y126.597 E.01853
G1 X128.172 Y126.368 E.01722
G1 X127.715 Y125.986 E.02264
G1 X127.428 Y125.652 E.01674
G1 X127.197 Y125.288 E.01638
G1 X127.018 Y124.889 E.01662
G1 X126.967 Y124.715 E.00689
G1 X125.617 Y124.005 E.05797
G1 X125.31 Y123.776 E.01456
G1 X124.834 Y123.512 E.02069
G1 X124.702 Y124.234 E.0279
G1 X124.556 Y124.664 E.01726
G1 X124.334 Y125.084 E.01806
G1 X124.032 Y125.481 E.01896
G1 X123.59 Y125.894 E.02299
G1 X122.838 Y126.316 E.03277
G1 X120.19 Y127.029 E.10423
G1 X119.659 Y127.086 E.0203
G1 X115.326 Y126.65 E.16551
G1 X114.59 Y126.421 E.0293
G1 X113.979 Y126.048 E.02721
G1 X110.911 Y123.303 E.15646
G1 X110.473 Y122.735 E.02726
G1 X110.169 Y122.045 E.02866
G1 X110.072 Y121.608 E.01701
G1 X110.044 Y120.876 E.02784
G1 X110.808 Y116.127 E.18281
G1 X111.052 Y115.406 E.02893
G1 X111.374 Y114.864 E.02396
G1 X111.844 Y114.346 E.02658
G1 X113.575 Y113.074 E.08164
G1 X112.529 Y109.502 E.14146
G1 X112.209 Y104.989 E.17195
G1 X112.529 Y100.498 E.17112
G1 X113.575 Y96.926 E.14146
G1 X111.844 Y95.654 E.08164
G1 X111.373 Y95.136 E.02661
G1 X111.052 Y94.594 E.02394
G1 X110.808 Y93.873 E.02893
G1 X110.045 Y89.13 E.18258
G1 X110.068 Y88.412 E.0273
G1 X110.104 Y88.188 E.00862
M73 P1 R64
G1 X110.409 Y87.379 E.03286
G1 X110.866 Y86.755 E.0294
M204 P1000
G1 X111.225 Y87.03 F12000
M204 P600
G1 F1200
G1 X114.264 Y84.311 E.15498
G1 X114.762 Y84 E.02231
G1 X115.543 Y83.774 E.0309
G1 X119.463 Y83.374 E.14976
G1 X119.883 Y83.385 E.01597
G1 X122.575 Y84.073 E.1056
G1 X123.272 Y84.436 E.02987
G1 X123.768 Y84.91 E.02607
G1 X123.976 Y85.205 E.01372
G1 X124.135 Y85.515 E.01324
G1 X124.26 Y85.883 E.01477
G1 X124.491 Y87.201 E.05086
G1 X125.561 Y86.607 E.04651
G1 X125.847 Y86.39 E.01364
G1 X127.362 Y85.594 E.06504
G1 X127.445 Y85.275 E.01253
G1 X127.593 Y84.94 E.01392
G1 X127.788 Y84.63 E.01392
G1 X128.025 Y84.35 E.01394
G1 X128.422 Y84.016 E.01972
G1 X128.78 Y83.806 E.01577
G1 X129.165 Y83.658 E.01568
G1 X129.599 Y83.571 E.01682
G1 X132.913 Y83.433 E.12606
G1 X133.213 Y83.404 E.01146
G1 X133.577 Y83.427 E.01386
G1 X134.152 Y83.564 E.02247
G1 X136.448 Y84.62 E.09605
G1 X136.96 Y84.961 E.02338
G1 X137.36 Y85.361 E.0215
G1 X137.495 Y85.548 E.00877
G1 X139.788 Y89.967 E.18921
G1 X139.909 Y90.273 E.01251
G1 X140.523 Y93.427 E.12212
G1 X140.483 Y93.986 E.0213
G1 X140.348 Y94.461 E.01877
G1 X140.201 Y94.777 E.01325
G1 X139.917 Y95.197 E.01927
G1 X139.529 Y95.574 E.02056
G1 X137.718 Y97.029 E.08829
G1 X137.201 Y97.297 E.02213
G1 X137.008 Y97.359 E.0077
G1 X136.328 Y97.47 E.02619
G1 X135.165 Y97.407 E.04427
G1 X135.672 Y98.002 E.02971
G1 X136.045 Y98.677 E.02931
G1 X136.154 Y99.059 E.0151
G1 X137.039 Y104.699 E.21698
G1 X137.055 Y105.06 E.01373
G1 X136.155 Y110.939 E.22604
G1 X136.045 Y111.322 E.01514
G1 X135.672 Y111.998 E.02934
G1 X135.174 Y112.583 E.0292
G1 X136.461 Y112.538 E.04894
G1 X136.96 Y112.625 E.01925
G1 X137.443 Y112.81 E.01966
